;This Gcode has been generated specifically for the LulzBot Mini
;Basic settings: Layer height: 0.38 Walls: 1 Fill: 20
;Filament Diameter: 2.85
;Nozzle Size: 0.5
G21                          ; metric values
G90                          ; absolute positioning
M82                          ; set extruder to absolute mode
M107                         ; start with the fan off
G92 E0                       ; set extruder position to 0
M140 S60; get bed heating up
G28                          ; home all
M109 S140                    ; set to cleaning temp and wait
G1 Z150 E-30 F75             ; suck up XXmm of filament
M109 S140                    ; heat up rest of way
G1 X45 Y174 F11520           ; move behind scraper
G1 Z0  F1200                 ; CRITICAL: set Z to height of top of scraper
G1 X45 Y174 Z-.5 F4000       ; wiping ; plunge into wipe pad
G1 X55 Y172 Z-.5 F4000       ; wiping
G1 X45 Y174 Z0 F4000         ; wiping
G1 X55 Y172 F4000            ; wiping
G1 X45 Y174 F4000            ; wiping
G1 X55 Y172 F4000            ; wiping
G1 X45 Y174 F4000            ; wiping
G1 X55 Y172 F4000            ; wiping
G1 X60 Y174 F4000            ; wiping
G1 X80 Y172 F4000            ; wiping
G1 X60 Y174 F4000            ; wiping
G1 X80 Y172 F4000            ; wiping
G1 X60 Y174 F4000            ; wiping
G1 X90 Y172 F4000            ; wiping
G1 X80 Y174 F4000            ; wiping
G1 X100 Y172 F4000           ; wiping
G1 X80 Y174 F4000            ; wiping
G1 X100 Y172 F4000           ; wiping
G1 X80 Y174 F4000            ; wiping
G1 X100 Y172 F4000           ; wiping
G1 X110 Y174 F4000           ; wiping
G1 X100 Y172 F4000           ; wiping
G1 X110 Y174 F4000           ; wiping
G1 X100 Y172 F4000           ; wiping
G1 X110 Y174 F4000           ; wiping
G1 X115 Y172 Z-0.5 F1000     ; wipe slower and bury noz in cleanish area
G1 Z10                       ; raise z
G28 X0 Y0                    ; home x and y
M109 S140                    ; set to probing temp
M204 S300                    ; Set probing acceleration
G29                          ; Probe
M204 S2000                   ; Restore standard acceleration
G1 X5 Y15 Z10 F5000          ; get out the way
G4 S1                        ; pause
M400                         ; clear buffer
M109 S205    ; set extruder temp and wait
G4 S15                       ; wait for bed to temp up
G1 Z2 E0 F75                 ; extrude filament back into nozzle
M140 S60; get bed temping up during first layer

;Layer count: 159
;LAYER:0
M107
G0 F10500 X72.492 Y44.222 Z0.425
G0 X72.492 Y45.222
;TYPE:SKIRT
G1 F900 X72.492 Y44.222 E0.04164
G1 X74.986 Y41.729 E0.18847
G1 X76.910 Y40.770 E0.27798
G1 X78.756 Y40.306 E0.35723
G1 X81.400 Y40.306 E0.46732
G1 X86.866 Y41.676 E0.70196
G1 X86.866 Y43.823 E0.79135
G1 X87.846 Y44.803 E0.84906
G1 X87.266 Y46.294 E0.91568
G1 X87.266 Y54.321 E1.24990
G1 X86.788 Y54.353 E1.26985
G1 X87.423 Y54.538 E1.29739
G1 X88.916 Y55.400 E1.36917
G1 X89.718 Y56.701 E1.43281
G1 X89.727 Y56.707 E1.43326
G1 X90.545 Y57.691 E1.48654
G1 X91.186 Y59.068 E1.54978
G1 X91.268 Y60.175 E1.59600
G1 X91.230 Y60.963 E1.62885
G1 X91.049 Y61.583 E1.65574
G1 X91.022 Y62.144 E1.67913
G1 X90.807 Y63.161 E1.72241
G1 X90.329 Y64.222 E1.77087
G1 X90.266 Y64.302 E1.77511
G1 X90.266 Y68.022 E1.93000
G1 X90.466 Y68.222 E1.94178
G1 X90.466 Y68.622 E1.95843
G1 X90.666 Y68.822 E1.97021
G1 X90.666 Y69.222 E1.98686
G1 X93.087 Y71.643 E2.12942
G1 X90.666 Y74.064 E2.27198
G1 X90.666 Y76.664 E2.38024
G1 X90.466 Y76.864 E2.39202
G1 X90.466 Y77.263 E2.40863
G1 X90.266 Y77.463 E2.42041
G1 X90.266 Y79.664 E2.51206
G1 X90.066 Y79.864 E2.52383
G1 X90.066 Y81.064 E2.57380
G1 X89.866 Y81.264 E2.58558
G1 X89.866 Y81.864 E2.61056
G1 X89.666 Y82.064 E2.62234
G1 X89.666 Y83.464 E2.68063
G1 X89.266 Y83.864 E2.70418
G1 X89.266 Y90.864 E2.99565
G1 X89.066 Y91.064 E3.00743
G1 X89.066 Y97.684 E3.28307
G1 X87.157 Y98.321 E3.36686
G1 X86.744 Y99.317 E3.41176
G1 X87.037 Y99.416 E3.42464
G1 X88.058 Y100.080 E3.47535
G1 X89.251 Y101.493 E3.55235
G1 X89.334 Y101.865 E3.56822
G1 X89.573 Y102.088 E3.58183
G1 X90.250 Y103.192 E3.63575
G1 X90.576 Y104.210 E3.68026
G1 X90.664 Y105.427 E3.73107
G1 X90.345 Y107.033 E3.79924
G1 X89.715 Y107.857 E3.84243
G1 X89.551 Y108.279 E3.86128
G1 X89.146 Y109.076 E3.89851
G1 X88.887 Y109.692 E3.92633
G1 X88.582 Y110.247 E3.95270
G1 X88.113 Y110.844 E3.98431
G1 X87.585 Y111.341 E4.01450
G1 X86.815 Y111.839 E4.05269
G1 X85.622 Y112.287 E4.10575
G1 X83.927 Y112.335 E4.17635
G1 X82.681 Y111.830 E4.23233
G1 X82.071 Y111.460 E4.26204
G1 X81.580 Y111.080 E4.28789
G1 X80.911 Y110.352 E4.32906
G1 X80.378 Y109.490 E4.37126
G1 X80.017 Y108.716 E4.40682
G1 X79.977 Y108.634 E4.41062
G1 X79.937 Y108.719 E4.41453
G1 X79.643 Y109.391 E4.44507
G1 X79.039 Y110.395 E4.49386
G1 X78.158 Y111.290 E4.54615
G1 X76.813 Y112.166 E4.61298
G1 X75.163 Y112.350 E4.68211
G1 X74.360 Y112.273 E4.71570
G1 X73.209 Y111.933 E4.76567
G1 X71.922 Y111.038 E4.83094
G1 X71.205 Y109.976 E4.88430
G1 X70.903 Y109.285 E4.91570
G1 X70.471 Y108.535 E4.95173
G1 X70.223 Y107.904 E4.97996
G1 X70.213 Y107.884 E4.98090
G1 X69.993 Y107.592 E4.99612
G1 X69.634 Y106.924 E5.02769
G1 X69.327 Y105.937 E5.07073
G1 X69.260 Y105.096 E5.10586
G1 X69.434 Y103.559 E5.17027
G1 X70.276 Y102.259 E5.23476
G1 X70.705 Y101.781 E5.26150
G1 X70.875 Y101.315 E5.28216
G1 X72.186 Y99.741 E5.36745
G1 X73.292 Y99.309 E5.41689
G1 X71.294 Y98.310 E5.50990
G1 X71.333 Y98.163 E5.51623
G1 X70.892 Y98.015 E5.53560
G1 X70.892 Y91.064 E5.82503
G1 X70.692 Y90.864 E5.83681
G1 X70.692 Y90.463 E5.85350
G1 X66.436 Y86.205 E6.10418
G1 X69.767 Y84.539 E6.25925
G1 X69.068 Y83.840 E6.30041
G1 X69.892 Y81.850 E6.39009
G1 X69.892 Y80.864 E6.43115
G1 X69.692 Y80.664 E6.44293
G1 X69.692 Y79.664 E6.48456
G1 X69.492 Y79.464 E6.49634
G1 X69.492 Y77.064 E6.59627
G1 X69.292 Y76.864 E6.60805
G1 X69.292 Y76.664 E6.61638
G1 X68.892 Y76.264 E6.63993
G1 X68.892 Y71.862 E6.82322
G1 X68.686 Y71.656 E6.83535
G1 X68.892 Y70.976 E6.86494
G1 X68.892 Y68.272 E6.97753
G1 X69.857 Y67.791 E7.02242
G1 X70.292 Y66.356 E7.08486
G1 X70.292 Y64.967 E7.14269
G1 X69.714 Y64.258 E7.18078
G1 X69.188 Y63.061 E7.23522
G1 X69.022 Y62.168 E7.27304
G1 X68.981 Y61.731 E7.29132
G1 X68.797 Y61.217 E7.31405
G1 X68.710 Y60.352 E7.35025
G1 X68.722 Y59.308 E7.39372
G1 X69.313 Y57.834 E7.45984
G1 X70.101 Y56.880 E7.51136
G1 X70.188 Y56.807 E7.51609
G1 X70.376 Y56.398 E7.53484
G1 X71.280 Y55.324 E7.59329
G1 X72.116 Y54.774 E7.63495
G1 X72.092 Y54.775 E7.63595
G1 X72.092 Y53.732 E7.67938
G1 X71.719 Y51.933 E7.75588
G1 X72.092 Y52.026 E7.77189
G1 X72.092 Y46.222 E8.01356
G1 X72.292 Y46.022 E8.02533
G1 X72.292 Y45.422 E8.05032
G1 X72.492 Y45.222 E8.06209
G0 F10500 X73.117 Y45.481
G1 F900 X73.117 Y44.481 E8.10373
G1 X75.356 Y42.243 E8.23554
G1 X77.128 Y41.359 E8.31800
G1 X78.834 Y40.931 E8.39123
G1 X81.323 Y40.931 E8.49487
G1 X86.241 Y42.164 E8.70598
G1 X86.241 Y44.081 E8.78580
G1 X87.116 Y44.956 E8.83733
G1 X86.641 Y46.178 E8.89192
G1 X86.641 Y53.737 E9.20666
G1 X84.449 Y53.883 E9.29813
G1 X82.486 Y54.696 E9.38660
G1 X82.946 Y54.886 E9.40732
G1 X83.540 Y54.678 E9.43353
G1 X84.282 Y54.613 E9.46454
G1 X84.791 Y54.634 E9.48575
G1 X85.341 Y54.723 E9.50895
G1 X85.637 Y54.814 E9.52185
G1 X86.163 Y54.822 E9.54375
G1 X87.176 Y55.117 E9.58768
G1 X88.467 Y55.862 E9.64975
G1 X89.236 Y57.111 E9.71082
G1 X89.244 Y57.135 E9.71187
G1 X89.303 Y57.175 E9.71484
G1 X90.013 Y58.028 E9.76105
G1 X90.571 Y59.228 E9.81615
G1 X90.642 Y60.183 E9.85603
G1 X90.609 Y60.859 E9.88421
G1 X90.428 Y61.478 E9.91106
G1 X90.400 Y62.063 E9.93545
G1 X90.209 Y62.966 E9.97388
G1 X89.791 Y63.895 E10.01630
G1 X89.410 Y64.378 E10.04191
G1 X89.641 Y64.407 E10.05160
G1 X89.641 Y68.281 E10.21291
G1 X89.841 Y68.481 E10.22469
G1 X89.841 Y68.881 E10.24134
G1 X90.041 Y69.081 E10.25312
G1 X90.041 Y69.481 E10.26977
G1 X92.203 Y71.643 E10.39708
G1 X90.041 Y73.805 E10.52439
G1 X90.041 Y76.405 E10.63265
G1 X89.841 Y76.605 E10.64443
G1 X89.841 Y77.004 E10.66104
G1 X89.641 Y77.204 E10.67282
G1 X89.641 Y79.405 E10.76446
G1 X89.441 Y79.605 E10.77624
G1 X89.441 Y80.805 E10.82621
G1 X89.241 Y81.005 E10.83798
G1 X89.241 Y81.605 E10.86297
G1 X89.041 Y81.805 E10.87474
G1 X89.041 Y83.205 E10.93304
G1 X88.641 Y83.605 E10.95659
G1 X88.641 Y90.605 E11.24806
G1 X88.441 Y90.805 E11.25983
G1 X88.441 Y97.234 E11.52752
G1 X86.689 Y97.818 E11.60442
G1 X86.041 Y99.382 E11.67491
G1 X86.041 Y99.740 E11.68982
G1 X86.762 Y99.983 E11.72150
G1 X87.640 Y100.553 E11.76508
G1 X88.675 Y101.779 E11.83189
G1 X88.767 Y102.190 E11.84943
G1 X89.085 Y102.487 E11.86754
G1 X89.678 Y103.455 E11.91481
G1 X89.958 Y104.330 E11.95306
G1 X90.035 Y105.388 E11.99723
G1 X89.760 Y106.769 E12.05586
G1 X89.165 Y107.547 E12.09665
G1 X88.980 Y108.023 E12.11791
G1 X88.578 Y108.814 E12.15486
G1 X88.323 Y109.420 E12.18223
G1 X88.059 Y109.901 E12.20508
G1 X87.650 Y110.421 E12.23262
G1 X87.198 Y110.847 E12.25849
G1 X86.532 Y111.277 E12.29149
G1 X85.500 Y111.665 E12.33740
G1 X84.041 Y111.706 E12.39817
G1 X82.962 Y111.269 E12.44665
G1 X82.425 Y110.944 E12.47278
G1 X82.005 Y110.618 E12.49492
G1 X81.411 Y109.972 E12.53146
G1 X80.929 Y109.193 E12.56960
G1 X80.570 Y108.421 E12.60505
G1 X80.099 Y107.462 E12.64954
G1 X79.983 Y107.197 E12.66159
G1 X79.836 Y107.505 E12.67580
G1 X79.570 Y108.033 E12.70041
G1 X79.383 Y108.427 E12.71857
G1 X79.087 Y109.104 E12.74934
G1 X78.542 Y110.009 E12.79333
G1 X77.760 Y110.803 E12.83973
G1 X76.596 Y111.562 E12.89759
G1 X75.158 Y111.721 E12.95783
G1 X74.479 Y111.657 E12.98623
G1 X73.483 Y111.363 E13.02947
G1 X72.375 Y110.592 E13.08567
G1 X71.755 Y109.673 E13.13183
G1 X71.456 Y108.992 E13.16280
G1 X71.036 Y108.263 E13.19783
G1 X70.795 Y107.650 E13.22526
G1 X70.745 Y107.551 E13.22987
G1 X70.521 Y107.254 E13.24536
G1 X70.213 Y106.681 E13.27245
G1 X69.945 Y105.818 E13.31008
G1 X69.888 Y105.107 E13.33978
G1 X70.038 Y103.776 E13.39555
G1 X70.774 Y102.640 E13.45191
G1 X71.248 Y102.112 E13.48145
G1 X71.250 Y102.111 E13.48155
G1 X71.425 Y101.632 E13.50278
G1 X72.563 Y100.265 E13.57684
G1 X74.076 Y99.674 E13.64447
G1 X74.317 Y99.652 E13.65455
G1 X74.317 Y99.123 E13.67658
G1 X72.029 Y97.979 E13.78309
G1 X72.088 Y97.756 E13.79269
G1 X71.517 Y97.565 E13.81776
G1 X71.517 Y90.805 E14.09924
G1 X71.317 Y90.605 E14.11101
G1 X71.317 Y90.204 E14.12771
G1 X67.491 Y86.376 E14.35306
G1 X70.823 Y84.710 E14.50818
G1 X69.806 Y83.693 E14.56806
G1 X70.567 Y81.855 E14.65089
G1 X70.517 Y81.805 E14.65384
G1 X70.517 Y80.605 E14.70380
G1 X70.317 Y80.405 E14.71558
G1 X70.317 Y79.405 E14.75722
G1 X70.117 Y79.205 E14.76900
G1 X70.117 Y76.805 E14.86893
G1 X69.917 Y76.605 E14.88070
G1 X69.917 Y76.405 E14.88903
G1 X69.517 Y76.005 E14.91259
G1 X69.517 Y71.603 E15.09588
G1 X69.393 Y71.479 E15.10318
G1 X69.517 Y71.070 E15.12097
G1 X69.517 Y68.659 E15.22136
G1 X70.377 Y68.230 E15.26138
G1 X70.917 Y66.450 E15.33883
G1 X70.917 Y64.745 E15.40982
G1 X70.252 Y63.928 E15.45368
G1 X69.789 Y62.875 E15.50158
G1 X69.641 Y62.082 E15.53517
G1 X69.595 Y61.594 E15.55558
G1 X69.411 Y61.079 E15.57835
G1 X69.335 Y60.324 E15.60995
G1 X69.345 Y59.432 E15.64709
G1 X69.857 Y58.157 E15.70430
G1 X70.546 Y57.323 E15.74934
G1 X70.697 Y57.197 E15.75753
G1 X70.909 Y56.736 E15.77866
G1 X71.700 Y55.796 E15.82981
G1 X72.771 Y55.091 E15.88320
G1 X73.002 Y55.040 E15.89305
G1 X72.812 Y54.125 E15.93196
G1 X72.717 Y54.128 E15.93592
G1 X72.717 Y53.669 E15.95503
G1 X72.533 Y52.781 E15.99279
G1 X72.717 Y52.827 E16.00069
G1 X72.717 Y46.481 E16.26492
G1 X72.917 Y46.281 E16.27670
G1 X72.917 Y45.681 E16.30168
G1 X73.117 Y45.481 E16.31346
G1 F600 E14.81346
G1 Z0.525
G0 F10500 X74.532 Y59.059
;TYPE:WALL-INNER
G1 Z0.425
G1 F600 E16.31346
G1 F900 X74.801 Y59.067 E16.32466
G1 X75.068 Y59.044 E16.33582
G1 X75.120 Y59.029 E16.33808
G1 X75.107 Y59.082 E16.34035
G1 X75.133 Y59.345 E16.35135
G1 X75.123 Y59.516 E16.35849
G1 X75.359 Y60.099 E16.38467
G1 X75.901 Y60.510 E16.41300
G1 X76.235 Y60.555 E16.42703
G1 X75.849 Y61.100 E16.45484
G1 X75.588 Y61.630 E16.47944
G1 X75.276 Y62.207 E16.50675
G1 X75.008 Y62.802 E16.53392
G1 X74.993 Y62.799 E16.53456
G1 X74.879 Y62.715 E16.54045
G1 X74.450 Y62.264 E16.56637
G1 X74.090 Y61.912 E16.58733
G1 X73.910 Y61.692 E16.59917
G1 X73.876 Y61.613 E16.60275
G1 X73.854 Y61.498 E16.60763
G1 X73.785 Y60.756 E16.63866
G1 X73.721 Y60.512 E16.64916
G1 X73.637 Y60.277 E16.65955
G1 X73.934 Y60.028 E16.67569
G1 X74.234 Y59.675 E16.69498
G1 X74.516 Y59.060 E16.72315
G1 X74.532 Y59.059 E16.72382
G0 F10500 X74.951 Y58.427
;TYPE:WALL-OUTER
G1 F900 X75.485 Y58.269 E16.74700
G1 X75.689 Y58.283 E16.75552
G1 X75.727 Y58.302 E16.75729
G1 X75.757 Y58.331 E16.75902
G1 X75.805 Y58.417 E16.76312
G1 X75.842 Y58.653 E16.77307
G1 X75.836 Y58.727 E16.77616
G1 X75.739 Y59.125 E16.79322
G1 X75.760 Y59.332 E16.80188
G1 X75.755 Y59.412 E16.80522
G1 X75.874 Y59.705 E16.81839
G1 X76.149 Y59.913 E16.83274
G1 X76.594 Y59.974 E16.85145
G1 X76.747 Y59.981 E16.85782
G1 X76.898 Y60.022 E16.86434
G1 X77.102 Y60.181 E16.87511
G1 X77.143 Y60.239 E16.87807
G1 X77.181 Y60.426 E16.88601
G1 X77.126 Y60.612 E16.89409
G1 X77.109 Y60.632 E16.89518
G1 X76.700 Y60.980 E16.91754
G1 X76.387 Y61.421 E16.94006
G1 X76.132 Y61.938 E16.96406
G1 X75.836 Y62.484 E16.98992
G1 X75.562 Y63.093 E17.01773
G1 X75.517 Y63.171 E17.02148
G1 X75.394 Y63.321 E17.02955
G1 X75.328 Y63.372 E17.03303
G1 X75.135 Y63.429 E17.04141
G1 X75.009 Y63.443 E17.04668
G1 X74.726 Y63.378 E17.05877
G1 X74.466 Y63.187 E17.07221
G1 X74.089 Y62.798 E17.09476
G1 X73.630 Y62.336 E17.12188
G1 X73.373 Y62.021 E17.13881
G1 X73.275 Y61.799 E17.14891
G1 X73.235 Y61.582 E17.15810
G1 X73.167 Y60.865 E17.18809
G1 X72.972 Y60.272 E17.21408
G1 X72.961 Y60.153 E17.21906
G1 X73.011 Y60.030 E17.22458
G1 X73.131 Y59.885 E17.23242
G1 X73.493 Y59.582 E17.25208
G1 X73.703 Y59.335 E17.26558
G1 X73.997 Y58.695 E17.29490
G1 X74.132 Y58.535 E17.30362
G1 X74.205 Y58.486 E17.30728
G1 X74.417 Y58.440 E17.31631
G1 X74.527 Y58.434 E17.32090
G1 X74.784 Y58.441 E17.33160
G1 X74.951 Y58.427 E17.33858
G0 F10500 X74.751 Y59.284
;TYPE:SKIN
G1 F900 X74.908 Y59.440 E17.34780
G0 F10500 X74.400 Y59.816
G1 F900 X75.630 Y61.047 E17.42026
G0 F10500 X75.335 Y61.636
G1 F900 X73.977 Y60.278 E17.50022
G0 F10500 X74.048 Y61.233
G1 F900 X75.031 Y62.215 E17.55808
G1 F600 E16.05808
G1 Z0.525
G0 F10500 X83.871 Y60.713
;TYPE:WALL-INNER
G1 Z0.425
G1 F600 E17.55808
G1 F900 X83.668 Y60.534 E17.56934
G1 X83.863 Y60.488 E17.57769
G1 X84.418 Y60.230 E17.60317
G1 X84.681 Y59.755 E17.62578
G1 X84.767 Y59.411 E17.64054
G1 X84.752 Y59.064 E17.65500
G1 X84.753 Y59.043 E17.65588
G1 X84.750 Y58.986 E17.65826
G1 X85.161 Y59.057 E17.67562
G1 X85.397 Y59.060 E17.68545
G1 X85.482 Y59.326 E17.69708
G1 X85.717 Y59.818 E17.71978
G1 X86.152 Y60.173 E17.74316
G1 X86.345 Y60.304 E17.75287
G1 X86.259 Y60.598 E17.76563
G1 X86.196 Y61.030 E17.78380
G1 X86.173 Y61.516 E17.80406
G1 X86.133 Y61.671 E17.81073
G1 X85.961 Y61.889 E17.82229
G1 X85.220 Y62.610 E17.86534
G1 X85.054 Y62.761 E17.87468
G1 X84.985 Y62.793 E17.87785
G1 X84.944 Y62.801 E17.87959
G1 X84.636 Y62.160 E17.90920
G1 X84.350 Y61.602 E17.93531
G1 X84.096 Y61.017 E17.96186
G1 X83.871 Y60.713 E17.97761
G0 F10500 X83.970 Y59.749
;TYPE:WALL-OUTER
G1 F900 X84.095 Y59.523 E17.98836
G1 X84.139 Y59.348 E17.99588
G1 X84.101 Y58.614 E18.02648
G1 X84.157 Y58.389 E18.03614
G1 X84.207 Y58.302 E18.04031
G1 X84.307 Y58.249 E18.04503
G1 X84.364 Y58.244 E18.04741
G1 X84.426 Y58.246 E18.04999
G1 X84.515 Y58.261 E18.05375
G1 X84.894 Y58.377 E18.07025
G1 X85.218 Y58.433 E18.08394
G1 X85.619 Y58.438 E18.10064
G1 X85.745 Y58.475 E18.10611
G1 X85.861 Y58.542 E18.11169
G1 X85.918 Y58.635 E18.11623
G1 X86.064 Y59.095 E18.13632
G1 X86.221 Y59.422 E18.15143
G1 X86.526 Y59.672 E18.16785
G1 X86.845 Y59.887 E18.18387
G1 X86.926 Y59.985 E18.18916
G1 X87.006 Y60.157 E18.19706
G1 X87.011 Y60.221 E18.19973
G1 X87.010 Y60.256 E18.20119
G1 X86.871 Y60.731 E18.22180
G1 X86.819 Y61.090 E18.23690
G1 X86.794 Y61.601 E18.25820
G1 X86.745 Y61.835 E18.26816
G1 X86.671 Y61.998 E18.27561
G1 X86.421 Y62.315 E18.29242
G1 X86.034 Y62.670 E18.31429
G1 X85.658 Y63.057 E18.33676
G1 X85.402 Y63.289 E18.35114
G1 X85.180 Y63.391 E18.36131
G1 X84.939 Y63.442 E18.37157
G1 X84.790 Y63.432 E18.37779
G1 X84.656 Y63.386 E18.38369
G1 X84.571 Y63.334 E18.38784
G1 X84.425 Y63.161 E18.39726
G1 X84.194 Y62.706 E18.41851
G1 X83.777 Y61.854 E18.45801
G1 X83.551 Y61.332 E18.48169
G1 X83.407 Y61.138 E18.49175
G1 X82.987 Y60.765 E18.51514
G1 X82.852 Y60.617 E18.52348
G1 X82.797 Y60.466 E18.53017
G1 X82.791 Y60.392 E18.53326
G1 X82.855 Y60.241 E18.54009
G1 X82.893 Y60.192 E18.54267
G1 X83.098 Y60.035 E18.55343
G1 X83.657 Y59.894 E18.57743
G1 X83.970 Y59.749 E18.59179
G0 F10500 X84.330 Y59.949
G0 X84.608 Y61.627
;TYPE:FILL
G1 F900 X85.251 Y62.270 E18.62966
G0 F10500 X85.475 Y62.052
;TYPE:SKIN
G1 F900 X84.162 Y60.740 E18.70694
G0 F10500 X84.620 Y60.314
G1 F900 X85.907 Y61.601 E18.78273
G0 F10500 X86.005 Y60.815
G1 F900 X84.914 Y59.724 E18.84697
G1 F600 E17.34697
G1 Z0.525
G0 F10500 X84.225 Y103.697
;TYPE:WALL-INNER
G1 Z0.425
G1 F600 E18.84697
G1 F900 X84.745 Y103.787 E18.86894
G1 X84.772 Y103.796 E18.87013
G1 X84.862 Y104.198 E18.88728
G1 X85.164 Y104.688 E18.91125
G1 X85.453 Y104.962 E18.92783
G1 X85.651 Y105.094 E18.93774
G1 X85.675 Y105.117 E18.93912
G1 X85.591 Y105.226 E18.94485
G1 X85.336 Y105.670 E18.96617
G1 X85.097 Y106.285 E18.99365
G1 X84.721 Y107.024 E19.02817
G1 X84.667 Y107.153 E19.03399
G1 X84.420 Y106.622 E19.05838
G1 X83.959 Y105.683 E19.10193
G1 X83.688 Y105.064 E19.13007
G1 X83.439 Y104.633 E19.15079
G1 X83.344 Y104.518 E19.15701
G1 X83.853 Y104.253 E19.18090
G1 X84.121 Y103.645 E19.20857
G1 X84.225 Y103.697 E19.21341
G0 F10500 X83.369 Y103.800
;TYPE:WALL-OUTER
G1 F900 X83.557 Y103.375 E19.23276
G1 X83.560 Y103.235 E19.23859
G1 X83.593 Y102.946 E19.25070
G1 X83.626 Y102.891 E19.25337
G1 X83.692 Y102.857 E19.25646
G1 X83.777 Y102.859 E19.26000
G1 X83.882 Y102.879 E19.26445
G1 X84.112 Y102.973 E19.27480
G1 X84.286 Y103.030 E19.28242
G1 X84.421 Y103.097 E19.28870
G1 X84.897 Y103.179 E19.30881
G1 X85.171 Y103.272 E19.32086
G1 X85.218 Y103.302 E19.32318
G1 X85.333 Y103.438 E19.33059
G1 X85.449 Y103.959 E19.35282
G1 X85.653 Y104.291 E19.36904
G1 X85.845 Y104.472 E19.38003
G1 X86.043 Y104.605 E19.38996
G1 X86.252 Y104.800 E19.40186
G1 X86.360 Y104.975 E19.41043
G1 X86.375 Y105.023 E19.41252
G1 X86.385 Y105.162 E19.41832
G1 X86.370 Y105.235 E19.42143
G1 X86.113 Y105.573 E19.43911
G1 X85.902 Y105.940 E19.45673
G1 X85.666 Y106.546 E19.48381
G1 X85.289 Y107.287 E19.51843
G1 X85.052 Y107.849 E19.54382
G1 X84.970 Y107.967 E19.54981
G1 X84.894 Y108.021 E19.55369
G1 X84.792 Y108.059 E19.55822
G1 X84.697 Y108.062 E19.56218
G1 X84.594 Y108.021 E19.56680
G1 X84.467 Y107.941 E19.57305
G1 X84.310 Y107.771 E19.58268
G1 X84.125 Y107.471 E19.59736
G1 X83.856 Y106.892 E19.62394
G1 X83.391 Y105.945 E19.66787
G1 X83.130 Y105.347 E19.69504
G1 X82.923 Y104.991 E19.71218
G1 X82.469 Y104.437 E19.74201
G1 X82.451 Y104.413 E19.74326
G1 X82.430 Y104.347 E19.74614
G1 X82.435 Y104.307 E19.74782
G1 X82.546 Y104.206 E19.75407
G1 X82.743 Y104.127 E19.76290
G1 X83.369 Y103.800 E19.79231
G0 F10500 X83.770 Y104.542
;TYPE:SKIN
G1 F900 X85.044 Y105.816 E19.86733
G0 F10500 X85.338 Y105.226
G1 F900 X84.175 Y104.063 E19.93581
G0 F10500 X84.374 Y106.029
G1 F900 X84.777 Y106.433 E19.95957
G1 F600 E18.45957
G1 Z0.525
G0 F10500 X76.386 Y104.546
;TYPE:WALL-INNER
G1 Z0.425
G1 F600 E19.95957
G1 F900 X76.584 Y104.602 E19.96814
G1 X76.303 Y105.042 E19.98988
G1 X76.025 Y105.625 E20.01677
G1 X75.755 Y106.162 E20.04180
G1 X75.509 Y106.681 E20.06571
G1 X75.306 Y107.145 E20.08680
G1 X75.294 Y107.164 E20.08774
G1 X74.874 Y106.414 E20.12353
G1 X74.679 Y105.916 E20.14580
G1 X74.425 Y105.374 E20.17072
G1 X74.266 Y105.163 E20.18172
G1 X74.574 Y104.934 E20.19770
G1 X74.942 Y104.531 E20.22043
G1 X75.123 Y104.090 E20.24028
G1 X75.176 Y103.838 E20.25100
G1 X75.432 Y103.814 E20.26170
G1 X75.796 Y103.713 E20.27743
G1 X75.819 Y103.946 E20.28718
G1 X76.386 Y104.546 E20.32155
G0 F10500 X76.722 Y103.992
;TYPE:WALL-OUTER
G1 F900 X77.319 Y104.161 E20.34739
G1 X77.442 Y104.229 E20.35324
G1 X77.487 Y104.289 E20.35636
G1 X77.500 Y104.364 E20.35953
G1 X77.475 Y104.457 E20.36354
G1 X77.329 Y104.684 E20.37478
G1 X77.049 Y105.021 E20.39302
G1 X76.853 Y105.340 E20.40861
G1 X76.583 Y105.907 E20.43476
G1 X76.317 Y106.436 E20.45942
G1 X76.078 Y106.940 E20.48264
G1 X75.860 Y107.438 E20.50528
G1 X75.659 Y107.771 E20.52147
G1 X75.451 Y107.982 E20.53381
G1 X75.340 Y108.055 E20.53934
G1 X75.149 Y108.076 E20.54734
G1 X75.072 Y108.053 E20.55069
G1 X75.002 Y108.005 E20.55422
G1 X74.942 Y107.916 E20.55869
G1 X74.698 Y107.359 E20.58401
G1 X74.309 Y106.685 E20.61642
G1 X74.107 Y106.171 E20.63941
G1 X73.896 Y105.711 E20.66048
G1 X73.582 Y105.294 E20.68222
G1 X73.531 Y105.144 E20.68881
G1 X73.544 Y105.031 E20.69355
G1 X73.702 Y104.803 E20.70510
G1 X74.153 Y104.468 E20.72849
G1 X74.407 Y104.191 E20.74414
G1 X74.523 Y103.906 E20.75695
G1 X74.616 Y103.463 E20.77580
G1 X74.751 Y103.301 E20.78458
G1 X74.921 Y103.235 E20.79218
G1 X75.319 Y103.197 E20.80882
G1 X75.639 Y103.109 E20.82264
G1 X76.127 Y102.877 E20.84514
G1 X76.250 Y102.868 E20.85028
G1 X76.276 Y102.870 E20.85136
G1 X76.293 Y102.876 E20.85211
G1 X76.338 Y102.954 E20.85586
G1 X76.376 Y103.403 E20.87462
G1 X76.401 Y103.474 E20.87776
G1 X76.420 Y103.672 E20.88604
G1 X76.722 Y103.992 E20.90436
G0 F10500 X76.609 Y104.389
G0 X75.711 Y105.763
;TYPE:FILL
G1 F900 X74.979 Y104.811 E20.95364
G1 X75.857 Y105.468 E20.99930
G0 F10500 X75.562 Y106.057
;TYPE:SKIN
G1 F900 X74.653 Y105.148 E21.05283
G0 F10500 X75.350 Y104.076
G1 F900 X76.149 Y104.875 E21.09988
G1 F600 E19.59988
G1 Z0.525
G0 F10500 X81.658 Y54.309
;TYPE:SUPPORT
G1 Z0.425
G1 F600 E21.09988
G1 F900 X81.658 Y43.579 E21.54665
G0 F10500 X81.433 Y44.475
G0 X82.829 Y45.026
G0 X83.754 Y44.996
G1 F900 X75.804 Y44.996 E21.87768
G0 F10500 X76.729 Y45.322
G0 X78.548 Y44.520
G0 X78.325 Y43.622
G1 F900 X78.325 Y53.882 E22.30488
G0 F10500 X78.996 Y52.997
G0 X78.591 Y51.431
G0 X77.696 Y51.662
G1 F900 X82.836 Y51.662 E22.51890
G0 F10500 X81.976 Y51.326
G0 X81.983 Y50.582
G0 X83.645 Y48.909
G0 X84.373 Y48.329
G1 F900 X75.204 Y48.329 E22.90068
G1 F600 E21.40068
G1 Z0.525
G0 F10500 X78.325 Y56.418
G1 Z0.425
G1 F600 E22.90068
G1 F900 X78.325 Y101.295 E24.76927
G0 F10500 X78.686 Y101.657
G1 F900 X82.102 Y101.657 E24.91150
G0 F10500 X81.658 Y101.842
G1 F900 X81.658 Y57.045 E26.77676
G0 F10500 X81.304 Y57.899
G0 X82.475 Y58.286
G0 X83.460 Y58.328
G1 F900 X77.204 Y58.328 E27.03724
G0 F10500 X78.129 Y58.328
G0 X78.423 Y60.477
G0 X77.601 Y61.802
G0 X77.306 Y62.067
G0 X76.477 Y61.661
G1 F900 X83.554 Y61.661 E27.33191
G0 F10500 X82.629 Y61.953
G0 X82.345 Y64.929
G0 X82.851 Y65.515
G0 X83.638 Y64.994
G1 F900 X76.204 Y64.994 E27.64145
G0 F10500 X74.992 Y65.024
G1 F900 X74.992 Y96.103 E28.93552
G0 F10500 X74.992 Y96.519
G1 F900 X74.992 Y96.680 E28.94222
G0 F10500 X76.023 Y96.240
G0 X76.267 Y95.508
G0 X74.929 Y94.991
G0 X74.004 Y94.991
G1 F900 X85.954 Y94.991 E29.43979
G0 F10500 X84.991 Y95.765
G1 F900 X84.991 Y64.730 E30.73203
G0 F10500 X85.476 Y64.994
G1 F900 X84.353 Y64.994 E30.77879
G0 F10500 X84.707 Y65.849
G0 X85.233 Y67.358
G0 X86.229 Y68.327
G0 X87.154 Y68.327
G1 F900 X72.204 Y68.327 E31.40127
G0 F10500 X73.129 Y68.327
G0 X73.508 Y69.846
G0 X73.346 Y70.574
G0 X72.929 Y71.660
G0 X72.004 Y71.660
G1 F900 X88.668 Y71.660 E32.09513
G0 F10500 X88.324 Y72.005
G1 F900 X88.324 Y71.282 E32.12523
G0 F10500 X87.441 Y71.705
G0 X86.545 Y72.358
G0 X86.629 Y74.993
G0 X87.554 Y74.993
G1 F900 X72.022 Y74.993 E32.77195
G0 F10500 X72.907 Y74.571
G0 X73.613 Y75.357
G0 X73.507 Y77.771
G0 X72.755 Y78.326
G1 F900 X87.154 Y78.326 E33.37150
G1 F600 E31.87150
G1 Z0.525
G0 F10500 X88.324 Y76.606
G1 Z0.425
G1 F600 E33.37150
G1 F900 X88.324 Y75.699 E33.40926
G1 F600 E31.90926
G1 Z0.525
G0 F10500 X87.069 Y81.659
G1 Z0.425
G1 F600 E33.40926
G1 F900 X73.340 Y81.659 E33.98091
G0 F10500 X74.193 Y82.013
G0 X74.740 Y84.543
G0 X74.529 Y84.992
G0 X73.604 Y84.992
G1 F900 X86.354 Y84.992 E34.51180
G0 F10500 X85.429 Y84.992
G0 X85.159 Y86.815
G0 X85.429 Y88.325
G0 X86.354 Y88.325
G1 F900 X73.404 Y88.325 E35.05101
G0 F10500 X74.329 Y88.325
G0 X74.813 Y88.757
G0 X75.013 Y89.931
G0 X74.929 Y91.658
G0 X74.004 Y91.658
G1 F900 X85.954 Y91.658 E35.54858
G0 F10500 X85.029 Y91.658
G0 X82.990 Y95.555
G0 X84.189 Y96.653
G0 X84.991 Y96.149
G1 F900 X84.991 Y97.000 E35.58401
G0 F10500 X84.442 Y98.324
G1 F900 X77.082 Y98.324 E35.89047
G0 F10500 X77.682 Y97.591
G0 X74.569 Y65.848
G0 X74.924 Y64.994
G1 F900 X73.404 Y64.994 E35.95376
G1 F600 E34.45376
G1 Z0.525
G0 F10500 X78.325 Y107.004
G1 Z0.425
G1 F600 E35.95376
G1 F900 X78.325 Y112.068 E36.16461
G0 F10500 X78.055 Y111.656
G1 F900 X82.354 Y111.656 E36.34362
G0 F10500 X81.658 Y112.068
G1 F900 X81.658 Y106.618 E36.57054
G0 F10500 X81.319 Y107.543
G0 X81.188 Y107.784
G0 X81.820 Y108.677
G0 X82.675 Y108.323
G1 F900 X77.004 Y108.323 E36.80667
;LAYER:1
M106 S211
G1 F600 E35.30667
G1 Z0.525
G0 F10500 X74.960 Y63.168 Z0.805
;TYPE:WALL-INNER
G1 Z0.805
G1 F600 E36.80667
G1 F900 X74.834 Y63.151 E36.81046
G1 X74.699 Y63.103 E36.81473
G1 X74.582 Y63.030 E36.81883
G1 X74.218 Y62.682 E36.83383
G1 X73.650 Y62.101 E36.85803
G1 X73.557 Y61.999 E36.86214
G1 X73.483 Y61.857 E36.86691
G1 X73.433 Y61.593 E36.87491
G1 X73.405 Y61.137 E36.88852
G1 X73.396 Y60.936 E36.89451
G1 X73.331 Y60.555 E36.90602
G1 X73.210 Y60.163 E36.91824
G1 X73.637 Y59.793 E36.93507
G1 X73.906 Y59.486 E36.94723
G1 X74.084 Y59.211 E36.95698
G1 X74.265 Y58.829 E36.96957
G1 X74.300 Y58.774 E36.97152
G1 X74.381 Y58.749 E36.97404
G1 X74.476 Y58.748 E36.97687
G1 X74.758 Y58.758 E36.98527
G1 X75.085 Y58.714 E36.99510
G1 X75.504 Y58.600 E37.00803
G1 X75.517 Y58.600 E37.00842
G1 X75.557 Y58.806 E37.01467
G1 X75.592 Y59.149 E37.02494
G1 X75.695 Y59.437 E37.03405
G1 X75.877 Y59.730 E37.04432
G1 X76.212 Y59.987 E37.05690
G1 X76.738 Y60.202 E37.07382
G1 X76.835 Y60.258 E37.07716
G1 X76.917 Y60.329 E37.08039
G1 X76.955 Y60.401 E37.08281
G1 X76.516 Y60.872 E37.10199
G1 X76.175 Y61.338 E37.11919
G1 X75.731 Y62.112 E37.14576
G1 X75.459 Y62.698 E37.16501
G1 X75.335 Y62.955 E37.17350
G1 X75.285 Y63.023 E37.17602
G1 X75.147 Y63.128 E37.18118
G1 X75.056 Y63.158 E37.18404
G1 X74.960 Y63.168 E37.18691
G0 F10500 X75.908 Y62.918
;TYPE:WALL-OUTER
G1 F840 X75.766 Y63.214 E37.19669
G1 X75.646 Y63.376 E37.20269
G1 X75.382 Y63.577 E37.21258
G1 X75.160 Y63.650 E37.21954
G1 X74.952 Y63.672 E37.22577
G1 X74.714 Y63.639 E37.23292
G1 X74.479 Y63.555 E37.24035
G1 X74.274 Y63.426 E37.24757
G1 X73.873 Y63.044 E37.26406
G1 X73.285 Y62.442 E37.28913
G1 X73.144 Y62.288 E37.29534
G1 X73.020 Y62.054 E37.30323
G1 X72.936 Y61.653 E37.31543
G1 X72.898 Y60.989 E37.33524
G1 X72.844 Y60.672 E37.34482
G1 X72.709 Y60.234 E37.35847
G1 X72.705 Y60.188 E37.35985
G1 X72.711 Y60.064 E37.36354
G1 X72.724 Y59.997 E37.36558
G1 X72.785 Y59.874 E37.36967
G1 X73.290 Y59.430 E37.38969
G1 X73.506 Y59.184 E37.39944
G1 X73.647 Y58.967 E37.40715
G1 X73.826 Y58.589 E37.41961
G1 X73.933 Y58.418 E37.42562
G1 X74.062 Y58.324 E37.43037
G1 X74.340 Y58.250 E37.43894
G1 X74.487 Y58.248 E37.44332
G1 X74.733 Y58.257 E37.45065
G1 X74.986 Y58.223 E37.45825
G1 X75.423 Y58.104 E37.47174
G1 X75.717 Y58.091 E37.48050
G1 X75.776 Y58.107 E37.48232
G1 X75.888 Y58.215 E37.48696
G1 X75.983 Y58.401 E37.49318
G1 X75.995 Y58.435 E37.49425
G1 X76.054 Y58.744 E37.50362
G1 X76.082 Y59.034 E37.51230
G1 X76.148 Y59.218 E37.51812
G1 X76.254 Y59.389 E37.52411
G1 X76.463 Y59.550 E37.53197
G1 X76.962 Y59.753 E37.54802
G1 X77.127 Y59.849 E37.55370
G1 X77.284 Y59.986 E37.55991
G1 X77.397 Y60.152 E37.56589
G1 X77.452 Y60.323 E37.57124
G1 X77.459 Y60.436 E37.57461
G1 X77.429 Y60.571 E37.57873
G1 X77.378 Y60.680 E37.58231
G1 X76.902 Y61.191 E37.60311
G1 X76.595 Y61.611 E37.61861
G1 X76.176 Y62.342 E37.64370
G1 X75.908 Y62.918 E37.66262
G0 F10500 X75.674 Y61.857
;TYPE:SKIN
G1 F1140 X74.665 Y62.866 E37.70512
G0 F10500 X74.304 Y62.520
G1 F1140 X76.522 Y60.302 E37.79854
G0 F10500 X76.041 Y60.076
G1 F1140 X73.955 Y62.162 E37.88641
G0 F10500 X73.643 Y61.767
G1 F1140 X75.674 Y59.736 E37.97195
G0 F10500 X75.444 Y59.259
G1 F1140 X73.579 Y61.124 E38.05051
G0 F10500 X73.496 Y60.500
G1 F1140 X75.108 Y58.888 E38.11840
G1 F600 E36.61840
G1 Z0.905
G0 F10500 X83.055 Y60.310
;TYPE:WALL-INNER
G1 Z0.805
G1 F600 E38.11840
G1 F900 X83.131 Y60.252 E38.12125
G1 X83.704 Y59.998 E38.13992
G1 X84.027 Y59.729 E38.15244
G1 X84.256 Y59.343 E38.16581
G1 X84.405 Y58.680 E38.18604
G1 X84.455 Y58.571 E38.18962
G1 X84.854 Y58.693 E38.20204
G1 X85.207 Y58.742 E38.21266
G1 X85.567 Y58.751 E38.22338
G1 X85.626 Y58.766 E38.22520
G1 X85.660 Y58.791 E38.22645
G1 X85.907 Y59.315 E38.24371
G1 X86.181 Y59.663 E38.25690
G1 X86.317 Y59.792 E38.26248
G1 X86.704 Y60.096 E38.27714
G1 X86.755 Y60.167 E38.27974
G1 X86.658 Y60.592 E38.29272
G1 X86.589 Y61.609 E38.32308
G1 X86.515 Y61.922 E38.33266
G1 X86.445 Y62.036 E38.33665
G1 X85.661 Y62.807 E38.36940
G1 X85.384 Y63.043 E38.38024
G1 X85.359 Y63.058 E38.38110
G1 X85.181 Y63.131 E38.38683
G1 X84.992 Y63.161 E38.39253
G1 X84.905 Y63.155 E38.39513
G1 X84.804 Y63.124 E38.39828
G1 X84.710 Y63.070 E38.40151
G1 X84.641 Y62.997 E38.40450
G1 X84.560 Y62.875 E38.40886
G1 X84.374 Y62.475 E38.42200
G1 X84.223 Y62.139 E38.43297
G1 X83.819 Y61.412 E38.45774
G1 X83.746 Y61.291 E38.46195
G1 X83.500 Y60.957 E38.47430
G1 X83.086 Y60.538 E38.49185
G1 X83.002 Y60.395 E38.49679
G1 X83.055 Y60.310 E38.49977
G0 F10500 X83.429 Y59.576
;TYPE:WALL-OUTER
G1 F840 X83.641 Y59.400 E38.50798
G1 X83.785 Y59.156 E38.51641
G1 X83.929 Y58.519 E38.53586
G1 X84.037 Y58.283 E38.54359
G1 X84.139 Y58.158 E38.54840
G1 X84.256 Y58.078 E38.55262
G1 X84.382 Y58.052 E38.55645
G1 X84.535 Y58.073 E38.56105
G1 X84.962 Y58.203 E38.57435
G1 X85.248 Y58.243 E38.58295
G1 X85.633 Y58.252 E38.59442
G1 X85.826 Y58.300 E38.60034
G1 X85.983 Y58.399 E38.60587
G1 X86.087 Y58.522 E38.61067
G1 X86.330 Y59.044 E38.62781
G1 X86.551 Y59.325 E38.63846
G1 X86.644 Y59.413 E38.64228
G1 X87.061 Y59.741 E38.65808
G1 X87.173 Y59.888 E38.66358
G1 X87.230 Y59.996 E38.66722
G1 X87.263 Y60.122 E38.67110
G1 X87.237 Y60.357 E38.67814
G1 X87.153 Y60.673 E38.68788
G1 X87.085 Y61.686 E38.71812
G1 X86.988 Y62.098 E38.73072
G1 X86.837 Y62.353 E38.73955
G1 X85.998 Y63.178 E38.77459
G1 X85.677 Y63.452 E38.78716
G1 X85.574 Y63.510 E38.79068
G1 X85.318 Y63.615 E38.79893
G1 X85.018 Y63.663 E38.80797
G1 X84.813 Y63.651 E38.81409
G1 X84.603 Y63.585 E38.82065
G1 X84.428 Y63.484 E38.82666
G1 X84.373 Y63.442 E38.82872
G1 X84.252 Y63.315 E38.83395
G1 X84.122 Y63.118 E38.84098
G1 X83.776 Y62.364 E38.86569
G1 X83.386 Y61.662 E38.88960
G1 X83.119 Y61.282 E38.90344
G1 X82.714 Y60.872 E38.92060
G1 X82.668 Y60.815 E38.92278
G1 X82.511 Y60.545 E38.93209
G1 X82.486 Y60.413 E38.93609
G1 X82.496 Y60.305 E38.93932
G1 X82.575 Y60.133 E38.94495
G1 X82.649 Y60.017 E38.94905
G1 X82.689 Y59.967 E38.95096
G1 X82.830 Y59.848 E38.95645
G1 X82.919 Y59.798 E38.95949
G1 X83.429 Y59.576 E38.97606
G0 F10500 X84.319 Y59.576
;TYPE:SKIN
G1 F1140 X85.004 Y58.891 E39.00491
G0 F10500 X85.576 Y59.026
G1 F1140 X83.688 Y60.915 E39.08446
G0 F10500 X83.345 Y60.550
G1 F1140 X83.710 Y60.186 E39.09981
G0 F10500 X83.976 Y61.334
G1 F1140 X85.820 Y59.490 E39.17748
G0 F10500 X86.146 Y59.871
G1 F1140 X84.228 Y61.789 E39.25827
G0 F10500 X84.468 Y62.255
G1 F1140 X86.537 Y60.186 E39.34541
G0 F10500 X86.455 Y60.976
G1 F1140 X84.690 Y62.740 E39.41973
G0 F10500 X85.208 Y62.930
G1 F1140 X86.369 Y61.769 E39.46863
G1 F600 E37.96863
G1 Z0.905
G0 F10500 X83.775 Y102.970
;TYPE:WALL-INNER
G1 Z0.805
G1 F600 E39.46863
G1 F900 X84.310 Y103.142 E39.48537
G1 X84.828 Y103.246 E39.50111
G1 X85.012 Y103.300 E39.50682
G1 X85.098 Y103.354 E39.50984
G1 X85.172 Y103.436 E39.51313
G1 X85.432 Y104.000 E39.53163
G1 X86.026 Y104.758 E39.56031
G1 X86.181 Y104.980 E39.56837
G1 X86.203 Y105.030 E39.57000
G1 X85.994 Y105.399 E39.58263
G1 X85.822 Y105.661 E39.59197
G1 X85.187 Y106.888 E39.63311
G1 X85.046 Y107.164 E39.64235
G1 X84.838 Y107.714 E39.65986
G1 X84.791 Y107.789 E39.66249
G1 X84.769 Y107.787 E39.66315
G1 X84.722 Y107.767 E39.66467
G1 X84.655 Y107.719 E39.66713
G1 X84.521 Y107.571 E39.67308
G1 X84.280 Y107.155 E39.68739
G1 X83.961 Y106.403 E39.71172
G1 X83.534 Y105.536 E39.74051
G1 X83.210 Y104.943 E39.76063
G1 X82.608 Y104.208 E39.78893
G1 X82.590 Y104.180 E39.78992
G1 X82.917 Y104.029 E39.80065
G1 X83.188 Y103.861 E39.81014
G1 X83.447 Y103.629 E39.82050
G1 X83.630 Y103.298 E39.83176
G1 X83.739 Y102.965 E39.84220
G1 X83.775 Y102.970 E39.84328
G0 F10500 X83.050 Y103.313
;TYPE:WALL-OUTER
G1 F840 X83.169 Y103.097 E39.85063
G1 X83.292 Y102.721 E39.86241
G1 X83.364 Y102.605 E39.86648
G1 X83.439 Y102.540 E39.86943
G1 X83.593 Y102.461 E39.87459
G1 X83.691 Y102.451 E39.87752
G1 X83.887 Y102.482 E39.88343
G1 X84.443 Y102.659 E39.90081
G1 X84.941 Y102.759 E39.91594
G1 X85.221 Y102.841 E39.92463
G1 X85.422 Y102.967 E39.93169
G1 X85.594 Y103.158 E39.93935
G1 X85.861 Y103.737 E39.95834
G1 X86.437 Y104.472 E39.98615
G1 X86.618 Y104.731 E39.99556
G1 X86.675 Y104.859 E39.99973
G1 X86.693 Y104.910 E40.00135
G1 X86.710 Y105.057 E40.00575
G1 X86.686 Y105.192 E40.00984
G1 X86.425 Y105.653 E40.02561
G1 X86.254 Y105.914 E40.03491
G1 X85.632 Y107.116 E40.07522
G1 X85.504 Y107.367 E40.08361
G1 X85.289 Y107.933 E40.10164
G1 X85.194 Y108.090 E40.10711
G1 X85.094 Y108.195 E40.11142
G1 X84.949 Y108.272 E40.11631
G1 X84.888 Y108.291 E40.11822
G1 X84.832 Y108.293 E40.11989
G1 X84.647 Y108.280 E40.12541
G1 X84.476 Y108.205 E40.13097
G1 X84.326 Y108.097 E40.13648
G1 X84.109 Y107.857 E40.14611
G1 X83.824 Y107.362 E40.16312
G1 X83.506 Y106.611 E40.18741
G1 X83.090 Y105.767 E40.21544
G1 X82.793 Y105.224 E40.23387
G1 X82.202 Y104.502 E40.26166
G1 X82.122 Y104.375 E40.26613
G1 X82.069 Y104.260 E40.26990
G1 X82.060 Y104.220 E40.27112
G1 X82.065 Y104.098 E40.27476
G1 X82.106 Y103.982 E40.27843
G1 X82.230 Y103.821 E40.28448
G1 X82.349 Y103.740 E40.28877
G1 X82.680 Y103.588 E40.29961
G1 X82.887 Y103.459 E40.30688
G1 X83.050 Y103.313 E40.31339
G0 F10500 X83.146 Y104.590
;TYPE:SKIN
G1 F1140 X84.400 Y103.336 E40.36621
G0 F10500 X84.966 Y103.477
G1 F1140 X83.442 Y105.001 E40.43040
G0 F10500 X83.691 Y105.459
G1 F1140 X85.211 Y103.939 E40.49443
G0 F10500 X85.494 Y104.363
G1 F1140 X83.925 Y105.933 E40.56053
G0 F10500 X84.154 Y106.410
G1 F1140 X85.805 Y104.759 E40.63007
G0 F10500 X85.638 Y105.633
G1 F1140 X84.364 Y106.907 E40.68374
G0 F10500 X84.608 Y107.371
G1 F1140 X84.886 Y107.093 E40.69544
G1 F600 E39.19544
G1 Z0.905
G0 F10500 X76.883 Y104.770
;TYPE:WALL-INNER
G1 Z0.805
G1 F600 E40.69544
G1 F900 X76.651 Y105.107 E40.70763
G1 X76.164 Y106.047 E40.73916
G1 X75.823 Y106.841 E40.76490
G1 X75.591 Y107.344 E40.78140
G1 X75.481 Y107.535 E40.78796
G1 X75.313 Y107.730 E40.79563
G1 X75.205 Y107.798 E40.79943
G1 X75.186 Y107.802 E40.80001
G1 X75.119 Y107.726 E40.80302
G1 X74.868 Y107.129 E40.82231
G1 X74.812 Y106.998 E40.82655
G1 X74.512 Y106.460 E40.84490
G1 X74.227 Y105.899 E40.86364
G1 X73.777 Y105.161 E40.88939
G1 X73.739 Y105.075 E40.89219
G1 X73.740 Y105.040 E40.89323
G1 X73.771 Y104.955 E40.89592
G1 X73.862 Y104.828 E40.90058
G1 X74.281 Y104.413 E40.91814
G1 X74.544 Y104.048 E40.93154
G1 X74.781 Y103.436 E40.95109
G1 X74.862 Y103.349 E40.95463
G1 X74.926 Y103.311 E40.95684
G1 X75.622 Y103.161 E40.97805
G1 X76.143 Y102.986 E40.99442
G1 X76.196 Y102.974 E40.99604
G1 X76.262 Y103.230 E41.00391
G1 X76.397 Y103.521 E41.01346
G1 X76.568 Y103.738 E41.02169
G1 X76.826 Y103.950 E41.03164
G1 X77.327 Y104.200 E41.04831
G1 X76.883 Y104.770 E41.06983
G0 F10500 X77.284 Y105.070
;TYPE:WALL-OUTER
G1 F840 X76.852 Y105.768 E41.09428
G1 X76.619 Y106.254 E41.11033
G1 X76.277 Y107.050 E41.13614
G1 X76.034 Y107.576 E41.15339
G1 X75.891 Y107.825 E41.16195
G1 X75.630 Y108.118 E41.17363
G1 X75.529 Y108.193 E41.17738
G1 X75.373 Y108.275 E41.18263
G1 X75.193 Y108.311 E41.18810
G1 X75.082 Y108.303 E41.19141
G1 X74.952 Y108.258 E41.19551
G1 X74.816 Y108.144 E41.20079
G1 X74.695 Y107.996 E41.20649
G1 X74.407 Y107.323 E41.22829
G1 X74.075 Y106.703 E41.24924
G1 X73.790 Y106.143 E41.26795
G1 X73.332 Y105.394 E41.29410
G1 X73.250 Y105.205 E41.30023
G1 X73.238 Y105.095 E41.30353
G1 X73.242 Y104.956 E41.30767
G1 X73.293 Y104.799 E41.31259
G1 X73.336 Y104.703 E41.31572
G1 X73.481 Y104.502 E41.32310
G1 X73.900 Y104.087 E41.34067
G1 X74.101 Y103.808 E41.35091
G1 X74.343 Y103.182 E41.37090
G1 X74.375 Y103.136 E41.37257
G1 X74.531 Y102.970 E41.37935
G1 X74.647 Y102.891 E41.38353
G1 X74.761 Y102.835 E41.38731
G1 X75.489 Y102.678 E41.40949
G1 X76.011 Y102.503 E41.42589
G1 X76.215 Y102.457 E41.43212
G1 X76.328 Y102.466 E41.43550
G1 X76.468 Y102.509 E41.43986
G1 X76.574 Y102.586 E41.44376
G1 X76.631 Y102.654 E41.44640
G1 X76.735 Y103.061 E41.45891
G1 X76.826 Y103.257 E41.46535
G1 X76.927 Y103.386 E41.47023
G1 X77.100 Y103.528 E41.47690
G1 X77.691 Y103.822 E41.49656
G1 X77.706 Y103.831 E41.49708
G1 X77.826 Y103.961 E41.50235
G1 X77.869 Y104.095 E41.50654
G1 X77.879 Y104.180 E41.50909
G1 X77.875 Y104.215 E41.51013
G1 X77.812 Y104.385 E41.51553
G1 X77.479 Y104.830 E41.53209
G1 X77.284 Y105.070 E41.54130
G0 F10500 X76.862 Y104.510
;TYPE:SKIN
G1 F1140 X74.785 Y106.587 E41.62878
G0 F10500 X74.539 Y106.126
G1 F1140 X76.641 Y104.023 E41.71734
G0 F10500 X76.289 Y103.668
G1 F1140 X74.291 Y105.667 E41.80152
G0 F10500 X74.023 Y105.228
G1 F1140 X76.051 Y103.200 E41.88694
G0 F10500 X75.091 Y103.453
G1 F1140 X74.880 Y103.663 E41.89580
G0 F10500 X75.927 Y106.152
G1 F1140 X75.026 Y107.053 E41.93375
G1 F600 E40.43375
G1 Z0.905
G0 F10500 X78.325 Y107.793
;TYPE:SUPPORT
G1 Z0.805
G1 F600 E41.93375
G1 F1140 X78.325 Y110.718 E42.02087
G0 F10500 X78.325 Y110.543
G0 X81.535 Y110.088
G0 X81.658 Y110.211
G1 F1140 X81.658 Y107.829 E42.09181
G1 F600 E40.59181
G1 Z0.905
G0 F10500 X81.658 Y101.030
G1 Z0.805
G1 F600 E42.09181
G1 F1140 X81.658 Y60.744 E43.29167
G0 F10500 X81.658 Y60.044
G1 F1140 X81.658 Y57.857 E43.35680
G0 F10500 X81.591 Y58.017
G0 X78.325 Y57.343
G0 X78.325 Y57.168
G1 F1140 X78.325 Y60.282 E43.44955
G0 F10500 X78.325 Y60.576
G1 F1140 X78.325 Y98.106 E44.56732
G0 F10500 X78.403 Y97.951
G0 X77.799 Y96.971
G0 X76.267 Y95.508
G0 X75.046 Y95.149
G0 X74.992 Y95.313
G1 F1140 X74.992 Y65.836 E45.44524
G0 F10500 X74.925 Y65.996
G0 X76.568 Y66.748
G0 X77.213 Y65.529
G0 X77.413 Y63.558
G0 X78.615 Y60.530
G0 X83.191 Y66.549
G0 X84.825 Y65.951
G0 X84.991 Y65.896
G1 F1140 X84.991 Y94.974 E46.31128
G1 F600 E44.81128
G1 Z0.905
G0 F10500 X81.658 Y52.624
G1 Z0.805
G1 F600 E46.31128
G1 F1140 X81.658 Y44.352 E46.55765
G0 F10500 X81.616 Y44.521
G0 X78.367 Y44.566
G0 X78.325 Y44.395
G1 F1140 X78.325 Y51.099 E46.75732
;LAYER:2
M106 S234
G1 F600 E45.25732
G1 Z0.905
G0 F10500 X75.509 Y58.763 Z1.185
;TYPE:WALL-INNER
G1 Z1.185
G1 F600 E46.75732
G1 F900 X75.621 Y59.175 E46.77004
G1 X75.780 Y59.538 E46.78184
G1 X76.053 Y59.846 E46.79410
G1 X76.335 Y60.033 E46.80417
G1 X76.787 Y60.232 E46.81888
G1 X76.901 Y60.314 E46.82307
G1 X76.963 Y60.381 E46.82578
G1 X76.971 Y60.399 E46.82637
G1 X76.951 Y60.462 E46.82834
G1 X76.767 Y60.772 E46.83908
G1 X76.357 Y61.287 E46.85868
G1 X76.280 Y61.404 E46.86285
G1 X76.165 Y61.547 E46.86832
G1 X75.904 Y61.967 E46.88305
G1 X75.643 Y62.526 E46.90142
G1 X75.430 Y63.013 E46.91725
G1 X75.402 Y63.055 E46.91876
G1 X75.353 Y63.101 E46.92076
G1 X75.324 Y63.138 E46.92216
G1 X75.214 Y63.206 E46.92601
G1 X75.003 Y63.276 E46.93263
G1 X74.911 Y63.285 E46.93538
G1 X74.728 Y63.253 E46.94092
G1 X74.588 Y63.207 E46.94531
G1 X74.483 Y63.156 E46.94878
G1 X74.190 Y62.925 E46.95989
G1 X73.765 Y62.496 E46.97788
G1 X73.437 Y62.100 E46.99319
G1 X73.361 Y61.956 E46.99804
G1 X73.306 Y61.616 E47.00830
G1 X73.283 Y60.938 E47.02851
G1 X73.217 Y60.264 E47.04868
G1 X73.216 Y60.219 E47.05002
G1 X73.222 Y60.151 E47.05205
G1 X73.302 Y60.065 E47.05555
G1 X73.748 Y59.713 E47.07247
G1 X74.032 Y59.359 E47.08599
G1 X74.305 Y58.876 E47.10251
G1 X74.321 Y58.859 E47.10321
G1 X74.332 Y58.852 E47.10360
G1 X74.429 Y58.829 E47.10656
G1 X74.956 Y58.809 E47.12227
G1 X75.466 Y58.691 E47.13786
G1 X75.509 Y58.763 E47.14036
G0 F10500 X76.207 Y59.265
;TYPE:WALL-OUTER
G1 F840 X76.384 Y59.465 E47.14831
G1 X76.576 Y59.592 E47.15517
G1 X77.038 Y59.797 E47.17022
G1 X77.242 Y59.946 E47.17775
G1 X77.394 Y60.122 E47.18467
G1 X77.465 Y60.275 E47.18970
G1 X77.476 Y60.391 E47.19317
G1 X77.469 Y60.484 E47.19595
G1 X77.418 Y60.645 E47.20098
G1 X77.333 Y60.820 E47.20677
G1 X77.176 Y61.061 E47.21534
G1 X76.762 Y61.582 E47.23516
G1 X76.574 Y61.836 E47.24457
G1 X76.343 Y62.208 E47.25761
G1 X76.101 Y62.726 E47.27464
G1 X75.872 Y63.251 E47.29170
G1 X75.788 Y63.377 E47.29621
G1 X75.724 Y63.438 E47.29884
G1 X75.683 Y63.490 E47.30081
G1 X75.602 Y63.557 E47.30394
G1 X75.421 Y63.664 E47.31021
G1 X75.111 Y63.767 E47.31994
G1 X74.871 Y63.786 E47.32711
G1 X74.608 Y63.740 E47.33506
G1 X74.404 Y63.673 E47.34145
G1 X74.215 Y63.581 E47.34771
G1 X73.856 Y63.298 E47.36133
G1 X73.394 Y62.832 E47.38087
G1 X73.019 Y62.379 E47.39839
G1 X72.881 Y62.120 E47.40713
G1 X72.806 Y61.658 E47.42107
G1 X72.784 Y60.963 E47.44178
G1 X72.756 Y60.540 E47.45440
G1 X72.718 Y60.310 E47.46135
G1 X72.715 Y60.209 E47.46436
G1 X72.735 Y60.004 E47.47049
G1 X72.783 Y59.900 E47.47390
G1 X72.969 Y59.691 E47.48224
G1 X73.393 Y59.356 E47.49833
G1 X73.617 Y59.078 E47.50896
G1 X73.904 Y58.569 E47.52637
G1 X74.001 Y58.473 E47.53043
G1 X74.102 Y58.403 E47.53409
G1 X74.246 Y58.351 E47.53865
G1 X74.385 Y58.330 E47.54284
G1 X74.890 Y58.311 E47.55789
G1 X75.423 Y58.188 E47.57418
G1 X75.584 Y58.183 E47.57898
G1 X75.633 Y58.187 E47.58044
G1 X75.702 Y58.213 E47.58264
G1 X75.742 Y58.236 E47.58401
G1 X75.843 Y58.348 E47.58850
G1 X75.972 Y58.564 E47.59600
G1 X76.094 Y59.008 E47.60971
G1 X76.207 Y59.265 E47.61807
G0 F10500 X74.896 Y58.986
;TYPE:SKIN
G1 F1200 X76.605 Y60.695 E47.69006
G0 F10500 X76.291 Y61.088
G1 F1200 X74.350 Y59.148 E47.77179
G0 F10500 X74.077 Y59.581
G1 F1200 X75.991 Y61.495 E47.85241
G0 F10500 X75.725 Y61.936
G1 F1200 X73.734 Y59.946 E47.93625
G0 F10500 X73.396 Y60.315
G1 F1200 X75.499 Y62.418 E48.02483
G0 F10500 X75.284 Y62.909
G1 F1200 X73.462 Y61.087 E48.10157
G0 F10500 X73.521 Y61.854
G1 F1200 X74.739 Y63.071 E48.15285
G1 F600 E46.65285
G1 Z1.285
G0 F10500 X83.102 Y60.657
;TYPE:WALL-INNER
G1 Z1.185
G1 F600 E48.15285
G1 F900 X82.986 Y60.421 E48.16068
G1 X83.057 Y60.318 E48.16441
G1 X83.112 Y60.274 E48.16651
G1 X83.468 Y60.131 E48.17793
G1 X83.823 Y59.908 E48.19042
G1 X84.079 Y59.640 E48.20146
G1 X84.245 Y59.363 E48.21107
G1 X84.309 Y59.217 E48.21582
G1 X84.424 Y58.808 E48.22848
G1 X84.490 Y58.668 E48.23309
G1 X84.734 Y58.746 E48.24072
G1 X85.078 Y58.804 E48.25111
G1 X85.519 Y58.810 E48.26424
G1 X85.564 Y58.825 E48.26565
G1 X85.602 Y58.855 E48.26710
G1 X85.665 Y58.930 E48.27001
G1 X85.877 Y59.311 E48.28300
G1 X86.097 Y59.600 E48.29382
G1 X86.330 Y59.813 E48.30322
G1 X86.725 Y60.131 E48.31832
G1 X86.764 Y60.190 E48.32043
G1 X86.769 Y60.238 E48.32187
G1 X86.768 Y60.355 E48.32535
G1 X86.742 Y60.584 E48.33221
G1 X86.743 Y60.809 E48.33892
G1 X86.732 Y61.435 E48.35756
G1 X86.730 Y61.493 E48.35929
G1 X86.672 Y61.943 E48.37281
G1 X86.655 Y62.004 E48.37469
G1 X86.475 Y62.249 E48.38375
G1 X85.842 Y62.911 E48.41103
G1 X85.687 Y63.054 E48.41731
G1 X85.520 Y63.148 E48.42301
G1 X85.267 Y63.241 E48.43104
G1 X85.058 Y63.276 E48.43735
G1 X84.933 Y63.277 E48.44108
G1 X84.839 Y63.257 E48.44394
G1 X84.661 Y63.194 E48.44956
G1 X84.617 Y63.160 E48.45122
G1 X84.531 Y63.057 E48.45521
G1 X84.497 Y62.999 E48.45722
G1 X84.299 Y62.528 E48.47243
G1 X83.966 Y61.857 E48.49474
G1 X83.384 Y61.011 E48.52533
G1 X83.102 Y60.657 E48.53881
G0 F10500 X82.984 Y61.311
;TYPE:WALL-OUTER
G1 F840 X82.686 Y60.938 E48.55303
G1 X82.570 Y60.732 E48.56007
G1 X82.478 Y60.493 E48.56770
G1 X82.471 Y60.422 E48.56982
G1 X82.472 Y60.379 E48.57110
G1 X82.514 Y60.224 E48.57588
G1 X82.689 Y59.971 E48.58505
G1 X82.856 Y59.838 E48.59141
G1 X83.240 Y59.684 E48.60373
G1 X83.505 Y59.517 E48.61306
G1 X83.679 Y59.335 E48.62056
G1 X83.837 Y59.048 E48.63031
G1 X83.956 Y58.627 E48.64334
G1 X84.052 Y58.421 E48.65011
G1 X84.160 Y58.264 E48.65579
G1 X84.221 Y58.204 E48.65834
G1 X84.283 Y58.169 E48.66046
G1 X84.360 Y58.149 E48.66283
G1 X84.542 Y58.159 E48.66825
G1 X84.853 Y58.259 E48.67798
G1 X85.124 Y58.305 E48.68617
G1 X85.598 Y58.311 E48.70029
G1 X85.804 Y58.376 E48.70672
G1 X85.953 Y58.496 E48.71242
G1 X86.078 Y58.643 E48.71817
G1 X86.297 Y59.037 E48.73159
G1 X86.468 Y59.261 E48.73999
G1 X86.655 Y59.433 E48.74755
G1 X87.040 Y59.740 E48.76222
G1 X87.111 Y59.808 E48.76515
G1 X87.242 Y60.015 E48.77244
G1 X87.269 Y60.220 E48.77860
G1 X87.268 Y60.387 E48.78358
G1 X87.242 Y60.611 E48.79029
G1 X87.243 Y60.818 E48.79646
G1 X87.232 Y61.451 E48.81531
G1 X87.229 Y61.534 E48.81779
G1 X87.164 Y62.038 E48.83292
G1 X87.113 Y62.226 E48.83872
G1 X86.865 Y62.563 E48.85119
G1 X86.183 Y63.277 E48.88059
G1 X85.987 Y63.458 E48.88854
G1 X85.729 Y63.604 E48.89737
G1 X85.393 Y63.727 E48.90803
G1 X85.094 Y63.777 E48.91705
G1 X85.063 Y63.776 E48.91798
G1 X84.900 Y63.777 E48.92283
G1 X84.702 Y63.740 E48.92883
G1 X84.457 Y63.652 E48.93659
G1 X84.401 Y63.625 E48.93844
G1 X84.271 Y63.526 E48.94330
G1 X84.119 Y63.343 E48.95039
G1 X84.050 Y63.227 E48.95441
G1 X83.844 Y62.736 E48.97027
G1 X83.501 Y62.046 E48.99322
G1 X82.984 Y61.311 E49.01998
G0 F10500 X83.348 Y60.367
;TYPE:SKIN
G1 F1200 X85.742 Y62.761 E49.12082
G0 F10500 X86.088 Y62.400
G1 F1200 X83.811 Y60.123 E49.21672
G0 F10500 X84.180 Y59.785
G1 F1200 X86.421 Y62.026 E49.31111
G0 F10500 X86.555 Y61.453
G1 F1200 X84.444 Y59.341 E49.40005
G0 F10500 X84.734 Y58.924
G1 F1200 X86.567 Y60.758 E49.47728
G0 F10500 X85.310 Y63.036
G1 F1200 X84.189 Y61.915 E49.52449
G1 F600 E48.02449
G1 Z1.285
G0 F10500 X83.732 Y102.806
;TYPE:WALL-INNER
G1 Z1.185
G1 F600 E49.52449
G1 F900 X83.816 Y102.815 E49.52701
G1 X84.463 Y103.002 E49.54707
G1 X84.995 Y103.117 E49.56328
G1 X85.094 Y103.182 E49.56681
G1 X85.195 Y103.312 E49.57171
G1 X85.480 Y103.848 E49.58979
G1 X86.084 Y104.617 E49.61891
G1 X86.178 Y104.761 E49.62404
G1 X86.232 Y104.915 E49.62890
G1 X86.233 Y104.955 E49.63009
G1 X86.178 Y105.107 E49.63490
G1 X85.386 Y106.539 E49.68364
G1 X85.263 Y106.755 E49.69104
G1 X84.929 Y107.635 E49.71908
G1 X84.922 Y107.655 E49.71971
G1 X84.846 Y107.776 E49.72396
G1 X84.815 Y107.802 E49.72517
G1 X84.776 Y107.804 E49.72633
G1 X84.634 Y107.752 E49.73084
G1 X84.529 Y107.667 E49.73486
G1 X84.472 Y107.605 E49.73737
G1 X84.229 Y107.217 E49.75100
G1 X83.896 Y106.426 E49.77656
G1 X83.666 Y105.861 E49.79473
G1 X83.397 Y105.302 E49.81321
G1 X83.199 Y104.967 E49.82480
G1 X82.690 Y104.294 E49.84993
G1 X82.564 Y104.096 E49.85692
G1 X82.545 Y104.042 E49.85863
G1 X82.573 Y104.012 E49.85985
G1 X82.604 Y103.988 E49.86102
G1 X82.987 Y103.767 E49.87419
G1 X83.299 Y103.526 E49.88593
G1 X83.420 Y103.354 E49.89219
G1 X83.509 Y103.263 E49.89598
G1 X83.722 Y102.808 E49.91094
G1 X83.732 Y102.806 E49.91125
G0 F10500 X83.092 Y102.974
;TYPE:WALL-OUTER
G1 F840 X83.313 Y102.503 E49.92674
G1 X83.358 Y102.453 E49.92875
G1 X83.424 Y102.399 E49.93129
G1 X83.546 Y102.334 E49.93540
G1 X83.709 Y102.301 E49.94036
G1 X83.917 Y102.324 E49.94659
G1 X84.582 Y102.516 E49.96720
G1 X85.071 Y102.616 E49.98207
G1 X85.217 Y102.665 E49.98666
G1 X85.438 Y102.811 E49.99455
G1 X85.616 Y103.038 E50.00314
G1 X85.901 Y103.574 E50.02122
G1 X86.492 Y104.327 E50.04973
G1 X86.630 Y104.538 E50.05724
G1 X86.729 Y104.823 E50.06622
G1 X86.735 Y105.009 E50.07176
G1 X86.728 Y105.059 E50.07327
G1 X86.637 Y105.309 E50.08119
G1 X85.820 Y106.786 E50.13146
G1 X85.717 Y106.968 E50.13769
G1 X85.398 Y107.810 E50.16451
G1 X85.374 Y107.876 E50.16660
G1 X85.228 Y108.107 E50.17474
G1 X85.042 Y108.263 E50.18197
G1 X84.952 Y108.296 E50.18482
G1 X84.711 Y108.307 E50.19201
G1 X84.494 Y108.239 E50.19878
G1 X84.365 Y108.179 E50.20302
G1 X84.190 Y108.037 E50.20973
G1 X84.071 Y107.908 E50.21496
G1 X83.786 Y107.452 E50.23097
G1 X83.432 Y106.613 E50.25810
G1 X83.209 Y106.064 E50.27574
G1 X82.956 Y105.538 E50.29313
G1 X82.783 Y105.246 E50.30324
G1 X82.281 Y104.582 E50.32803
G1 X82.105 Y104.296 E50.33803
G1 X82.028 Y104.083 E50.34478
G1 X82.023 Y103.963 E50.34835
G1 X82.075 Y103.820 E50.35289
G1 X82.106 Y103.777 E50.35446
G1 X82.235 Y103.640 E50.36007
G1 X82.321 Y103.574 E50.36330
G1 X82.708 Y103.351 E50.37660
G1 X82.934 Y103.176 E50.38511
G1 X83.092 Y102.974 E50.39275
G0 F10500 X83.737 Y103.183
;TYPE:SKIN
G1 F1200 X85.865 Y105.310 E50.48236
G0 F10500 X85.613 Y105.766
G1 F1200 X83.454 Y103.607 E50.57330
G0 F10500 X83.064 Y103.924
G1 F1200 X85.361 Y106.221 E50.67005
G0 F10500 X85.107 Y106.674
G1 F1200 X83.406 Y104.972 E50.74172
G0 F10500 X84.036 Y106.309
G1 F1200 X84.912 Y107.186 E50.77863
G0 F10500 X85.803 Y104.542
G1 F1200 X84.437 Y103.175 E50.83619
G1 F600 E49.33619
G1 Z1.285
G0 F10500 X77.361 Y104.150
;TYPE:WALL-INNER
G1 Z1.185
G1 F600 E50.83619
G1 F900 X76.960 Y104.677 E50.85591
G1 X76.710 Y105.035 E50.86892
G1 X76.483 Y105.441 E50.88277
G1 X76.223 Y106.036 E50.90211
G1 X76.028 Y106.521 E50.91768
G1 X75.744 Y107.202 E50.93966
G1 X75.598 Y107.456 E50.94838
G1 X75.432 Y107.671 E50.95647
G1 X75.311 Y107.773 E50.96119
G1 X75.260 Y107.801 E50.96292
G1 X75.191 Y107.821 E50.96506
G1 X75.059 Y107.687 E50.97066
G1 X74.765 Y106.971 E50.99371
G1 X74.503 Y106.444 E51.01124
G1 X74.030 Y105.602 E51.04001
G1 X73.765 Y105.115 E51.05652
G1 X73.720 Y104.968 E51.06110
G1 X73.740 Y104.890 E51.06349
G1 X73.813 Y104.744 E51.06836
G1 X74.236 Y104.214 E51.08855
G1 X74.474 Y103.876 E51.10086
G1 X74.730 Y103.362 E51.11797
G1 X74.831 Y103.228 E51.12296
G1 X74.912 Y103.166 E51.12600
G1 X74.945 Y103.149 E51.12711
G1 X75.518 Y103.022 E51.14459
G1 X76.158 Y102.823 E51.16455
G1 X76.208 Y102.820 E51.16604
G1 X76.437 Y103.221 E51.17980
G1 X76.650 Y103.487 E51.18994
G1 X76.964 Y103.741 E51.20197
G1 X77.408 Y104.035 E51.21783
G1 X77.361 Y104.150 E51.22153
G0 F10500 X77.257 Y103.334
;TYPE:WALL-OUTER
G1 F840 X77.673 Y103.599 E51.23622
G1 X77.830 Y103.744 E51.24259
G1 X77.906 Y103.859 E51.24669
G1 X77.926 Y103.977 E51.25026
G1 X77.907 Y104.135 E51.25500
G1 X77.823 Y104.345 E51.26173
G1 X77.782 Y104.423 E51.26436
G1 X77.364 Y104.972 E51.28491
G1 X77.135 Y105.300 E51.29682
G1 X76.932 Y105.664 E51.30924
G1 X76.684 Y106.229 E51.32762
G1 X76.489 Y106.714 E51.34318
G1 X76.194 Y107.421 E51.36600
G1 X76.010 Y107.741 E51.37699
G1 X75.796 Y108.020 E51.38747
G1 X75.597 Y108.185 E51.39517
G1 X75.452 Y108.266 E51.40011
G1 X75.270 Y108.318 E51.40575
G1 X75.121 Y108.326 E51.41019
G1 X75.046 Y108.313 E51.41246
G1 X74.885 Y108.222 E51.41797
G1 X74.648 Y107.982 E51.42802
G1 X74.524 Y107.734 E51.43627
G1 X74.307 Y107.173 E51.45419
G1 X74.061 Y106.678 E51.47065
G1 X73.594 Y105.847 E51.49904
G1 X73.301 Y105.309 E51.51729
G1 X73.213 Y105.020 E51.52628
G1 X73.222 Y104.900 E51.52987
G1 X73.268 Y104.714 E51.53558
G1 X73.385 Y104.483 E51.54329
G1 X73.837 Y103.912 E51.56498
G1 X74.043 Y103.619 E51.57564
G1 X74.304 Y103.096 E51.59305
G1 X74.473 Y102.872 E51.60141
G1 X74.641 Y102.744 E51.60770
G1 X74.772 Y102.676 E51.61210
G1 X75.301 Y102.552 E51.62828
G1 X75.402 Y102.535 E51.63133
G1 X76.069 Y102.328 E51.65213
G1 X76.253 Y102.316 E51.65762
G1 X76.366 Y102.336 E51.66104
G1 X76.460 Y102.382 E51.66416
G1 X76.568 Y102.466 E51.66823
G1 X76.653 Y102.583 E51.67254
G1 X76.848 Y102.932 E51.68445
G1 X77.013 Y103.137 E51.69228
G1 X77.257 Y103.334 E51.70162
G0 F10500 X77.048 Y104.272
;TYPE:SKIN
G1 F1200 X75.871 Y103.094 E51.75122
G0 F10500 X75.315 Y103.246
G1 F1200 X76.746 Y104.677 E51.81149
G0 F10500 X76.470 Y105.107
G1 F1200 X74.857 Y103.495 E51.87941
G0 F10500 X74.622 Y103.967
G1 F1200 X76.232 Y105.577 E51.94723
G0 F10500 X76.019 Y106.071
G1 F1200 X74.326 Y104.378 E52.01853
G0 F10500 X74.013 Y104.772
G1 F1200 X75.815 Y106.575 E52.09446
G0 F10500 X75.607 Y107.073
G1 F1200 X74.352 Y105.819 E52.14730
G0 F10500 X75.063 Y107.236
G1 F1200 X75.335 Y107.509 E52.15877
G1 F600 E50.65877
G1 Z1.285
G0 F10500 X81.658 Y52.624
;TYPE:SUPPORT
G1 Z1.185
G1 F600 E52.15877
G1 F1200 X81.658 Y44.352 E52.40514
G0 F10500 X81.616 Y44.521
G0 X78.367 Y44.566
G0 X78.325 Y44.395
G1 F1200 X78.325 Y51.099 E52.60481
G1 F600 E51.10481
G1 Z1.285
G0 F10500 X78.325 Y57.168
G1 Z1.185
G1 F600 E52.60481
G1 F1200 X78.325 Y60.095 E52.69199
G0 F10500 X78.325 Y60.683
G1 F1200 X78.325 Y98.106 E53.80657
G0 F10500 X78.403 Y97.951
G0 X77.799 Y96.971
G0 X76.267 Y95.508
G0 X75.046 Y95.149
G0 X74.992 Y95.313
G1 F1200 X74.992 Y65.836 E54.68449
G0 F10500 X74.925 Y65.996
G0 X76.568 Y66.748
G0 X77.213 Y65.529
G0 X81.494 Y60.858
G0 X81.658 Y60.797
G1 F1200 X81.658 Y101.030 E55.88277
G0 F10500 X81.592 Y100.867
G0 X82.588 Y98.302
G0 X83.040 Y95.359
G0 X84.937 Y94.808
G0 X84.991 Y94.974
G1 F1200 X84.991 Y65.896 E56.74881
G0 F10500 X84.825 Y65.951
G0 X83.191 Y66.549
G0 X82.745 Y66.128
G0 X82.345 Y63.957
G0 X81.329 Y60.208
G0 X81.491 Y59.991
G0 X81.658 Y60.038
G1 F1200 X81.658 Y57.856 E56.81380
G1 F600 E55.31380
G1 Z1.285
G0 F10500 X81.658 Y107.829
G1 Z1.185
G1 F600 E56.81380
G1 F1200 X81.658 Y110.211 E56.88474
G0 F10500 X81.535 Y110.088
G0 X78.325 Y110.543
G0 X78.325 Y110.718
G1 F1200 X78.325 Y107.793 E56.97186
;LAYER:3
M106 S252
G1 F600 E55.47186
G1 Z1.285
G0 F10500 X75.025 Y63.408 Z1.565
;TYPE:WALL-INNER
G1 Z1.565
G1 F600 E56.97186
G1 F840 X74.814 Y63.397 E56.97815
G1 X74.675 Y63.372 E56.98236
G1 X74.535 Y63.329 E56.98672
G1 X74.390 Y63.256 E56.99155
G1 X74.044 Y62.983 E57.00468
G1 X73.684 Y62.614 E57.02003
G1 X73.480 Y62.371 E57.02948
G1 X73.330 Y62.071 E57.03947
G1 X73.304 Y61.974 E57.04246
G1 X73.254 Y61.467 E57.05764
G1 X73.249 Y61.257 E57.06389
G1 X73.255 Y60.703 E57.08039
G1 X73.266 Y60.500 E57.08645
G1 X73.306 Y60.315 E57.09209
G1 X73.435 Y60.128 E57.09885
G1 X73.813 Y59.803 E57.11370
G1 X74.171 Y59.399 E57.12978
G1 X74.406 Y59.032 E57.14276
G1 X74.465 Y59.020 E57.14455
G1 X74.951 Y59.006 E57.15903
G1 X75.419 Y58.935 E57.17313
G1 X75.433 Y58.957 E57.17391
G1 X75.588 Y59.372 E57.18710
G1 X75.824 Y59.787 E57.20132
G1 X76.081 Y60.079 E57.21290
G1 X76.290 Y60.231 E57.22060
G1 X76.738 Y60.431 E57.23521
G1 X76.798 Y60.478 E57.23748
G1 X76.808 Y60.492 E57.23799
G1 X76.814 Y60.530 E57.23914
G1 X76.774 Y60.780 E57.24668
G1 X76.724 Y60.912 E57.25089
G1 X76.632 Y61.099 E57.25709
G1 X76.454 Y61.367 E57.26667
G1 X76.082 Y61.793 E57.28352
G1 X75.897 Y62.091 E57.29397
G1 X75.819 Y62.258 E57.29946
G1 X75.643 Y62.786 E57.31603
G1 X75.528 Y63.086 E57.32560
G1 X75.443 Y63.214 E57.33018
G1 X75.271 Y63.350 E57.33671
G1 X75.222 Y63.371 E57.33830
G1 X75.164 Y63.387 E57.34009
G1 X75.025 Y63.408 E57.34427
G0 F10500 X75.263 Y63.878
;TYPE:WALL-OUTER
G1 F720 X75.052 Y63.909 E57.35063
G1 X74.761 Y63.896 E57.35930
G1 X74.555 Y63.858 E57.36554
G1 X74.348 Y63.796 E57.37198
G1 X74.119 Y63.680 E57.37962
G1 X73.712 Y63.359 E57.39506
G1 X73.313 Y62.950 E57.41208
G1 X73.051 Y62.637 E57.42423
G1 X72.862 Y62.252 E57.43701
G1 X72.811 Y62.068 E57.44270
G1 X72.754 Y61.488 E57.46005
G1 X72.749 Y61.252 E57.46708
G1 X72.755 Y60.691 E57.48379
G1 X72.769 Y60.434 E57.49146
G1 X72.825 Y60.171 E57.49947
G1 X72.864 Y60.073 E57.50261
G1 X73.060 Y59.791 E57.51284
G1 X73.462 Y59.446 E57.52861
G1 X73.765 Y59.104 E57.54222
G1 X73.902 Y58.871 E57.55027
G1 X74.045 Y58.680 E57.55738
G1 X74.136 Y58.606 E57.56087
G1 X74.249 Y58.553 E57.56459
G1 X74.407 Y58.521 E57.56939
G1 X74.906 Y58.507 E57.58426
G1 X75.346 Y58.439 E57.59752
G1 X75.564 Y58.425 E57.60403
G1 X75.656 Y58.452 E57.60688
G1 X75.770 Y58.555 E57.61146
G1 X75.885 Y58.736 E57.61784
G1 X76.043 Y59.160 E57.63132
G1 X76.239 Y59.505 E57.64314
G1 X76.408 Y59.699 E57.65080
G1 X76.541 Y59.796 E57.65570
G1 X76.999 Y59.999 E57.67062
G1 X77.163 Y60.129 E57.67686
G1 X77.289 Y60.320 E57.68367
G1 X77.316 Y60.511 E57.68942
G1 X77.316 Y60.557 E57.69079
G1 X77.260 Y60.906 E57.70131
G1 X77.064 Y61.353 E57.71585
G1 X76.854 Y61.670 E57.72718
G1 X76.485 Y62.091 E57.74385
G1 X76.338 Y62.329 E57.75218
G1 X76.284 Y62.443 E57.75594
G1 X76.120 Y62.939 E57.77150
G1 X75.974 Y63.318 E57.78359
G1 X75.839 Y63.523 E57.79090
G1 X75.746 Y63.618 E57.79486
G1 X75.526 Y63.783 E57.80305
G1 X75.393 Y63.843 E57.80740
G1 X75.263 Y63.878 E57.81141
G0 F10500 X74.690 Y63.194
;TYPE:FILL
G1 F960 X75.635 Y62.250 E57.85119
G0 F10500 X75.456 Y62.782
;TYPE:SKIN
G1 F1200 X74.728 Y63.156 E57.87006
G1 X74.901 Y62.630 E57.88655
G0 F10500 X75.084 Y62.447
G1 F1200 X76.397 Y61.134 E57.94185
G0 F10500 X75.832 Y60.992
G1 F1200 X76.151 Y60.319 E57.96439
G1 X75.396 Y60.367 E57.97845
G1 X75.622 Y59.788 E57.99696
G0 F10500 X75.381 Y59.322
G1 F1200 X74.492 Y60.211 E58.03441
G0 F10500 X73.867 Y60.836
G1 F1200 X73.675 Y61.381 E58.05310
G1 X73.600 Y62.163 E58.07214
G1 X74.378 Y62.092 E58.09215
G1 X74.068 Y62.757 E58.11401
G0 F10500 X73.437 Y60.559
G1 F1200 X74.812 Y59.184 E58.17192
G1 F600 E56.67192
G1 Z1.665
G0 F10500 X83.169 Y60.627
;TYPE:WALL-INNER
G1 Z1.565
G1 F600 E58.17192
G1 F840 X83.158 Y60.491 E58.17598
G1 X83.178 Y60.474 E58.17677
G1 X83.518 Y60.329 E58.18778
G1 X83.760 Y60.171 E58.19638
G1 X83.990 Y59.948 E58.20592
G1 X84.272 Y59.536 E58.22079
G1 X84.483 Y59.025 E58.23726
G1 X84.530 Y58.948 E58.23995
G1 X84.548 Y58.929 E58.24073
G1 X84.924 Y59.008 E58.25217
G1 X85.469 Y59.010 E58.26840
G1 X85.485 Y59.014 E58.26889
G1 X85.599 Y59.140 E58.27395
G1 X85.787 Y59.421 E58.28402
G1 X86.021 Y59.697 E58.29480
G1 X86.458 Y60.077 E58.31205
G1 X86.707 Y60.323 E58.32247
G1 X86.750 Y60.554 E58.32947
G1 X86.780 Y61.180 E58.34814
G1 X86.782 Y61.319 E58.35228
G1 X86.746 Y61.784 E58.36617
G1 X86.683 Y62.079 E58.37515
G1 X86.504 Y62.389 E58.38581
G1 X86.197 Y62.765 E58.40027
G1 X85.895 Y63.077 E58.41320
G1 X85.788 Y63.169 E58.41741
G1 X85.688 Y63.227 E58.42085
G1 X85.300 Y63.368 E58.43314
G1 X84.989 Y63.412 E58.44250
G1 X84.775 Y63.399 E58.44888
G1 X84.677 Y63.368 E58.45195
G1 X84.594 Y63.325 E58.45473
G1 X84.479 Y63.220 E58.45937
G1 X84.418 Y63.127 E58.46268
G1 X84.154 Y62.371 E58.48653
G1 X84.061 Y62.154 E58.49356
G1 X83.852 Y61.784 E58.50622
G1 X83.532 Y61.353 E58.52221
G1 X83.507 Y61.334 E58.52314
G1 X83.389 Y61.151 E58.52963
G1 X83.197 Y60.747 E58.54295
G1 X83.169 Y60.627 E58.54662
G0 F10500 X82.669 Y60.612
;TYPE:WALL-OUTER
G1 F720 X82.655 Y60.547 E58.54860
G1 X82.668 Y60.369 E58.55391
G1 X82.731 Y60.215 E58.55887
G1 X82.821 Y60.120 E58.56277
G1 X82.939 Y60.033 E58.56713
G1 X83.281 Y59.886 E58.57822
G1 X83.447 Y59.778 E58.58412
G1 X83.606 Y59.624 E58.59071
G1 X83.830 Y59.297 E58.60252
G1 X84.035 Y58.799 E58.61856
G1 X84.129 Y58.647 E58.62388
G1 X84.259 Y58.503 E58.62966
G1 X84.387 Y58.435 E58.63397
G1 X84.533 Y58.416 E58.63836
G1 X84.977 Y58.508 E58.65186
G1 X85.507 Y58.510 E58.66765
G1 X85.616 Y58.528 E58.67094
G1 X85.730 Y58.576 E58.67462
G1 X85.834 Y58.648 E58.67839
G1 X85.998 Y58.838 E58.68587
G1 X86.187 Y59.119 E58.69595
G1 X86.378 Y59.345 E58.70477
G1 X86.786 Y59.700 E58.72087
G1 X87.000 Y59.894 E58.72948
G1 X87.127 Y60.043 E58.73531
G1 X87.186 Y60.166 E58.73937
G1 X87.248 Y60.498 E58.74943
G1 X87.280 Y61.171 E58.76950
G1 X87.283 Y61.339 E58.77450
G1 X87.242 Y61.855 E58.78992
G1 X87.149 Y62.269 E58.80255
G1 X86.914 Y62.678 E58.81660
G1 X86.573 Y63.095 E58.83265
G1 X86.077 Y63.580 E58.85331
G1 X85.903 Y63.681 E58.85930
G1 X85.432 Y63.852 E58.87422
G1 X85.226 Y63.893 E58.88048
G1 X85.004 Y63.913 E58.88712
G1 X84.786 Y63.907 E58.89361
G1 X84.655 Y63.887 E58.89756
G1 X84.486 Y63.833 E58.90284
G1 X84.318 Y63.747 E58.90847
G1 X84.179 Y63.631 E58.91386
G1 X84.085 Y63.531 E58.91794
G1 X83.972 Y63.359 E58.92407
G1 X83.872 Y63.109 E58.93209
G1 X83.686 Y62.548 E58.94970
G1 X83.612 Y62.376 E58.95527
G1 X83.432 Y62.057 E58.96618
G1 X83.173 Y61.708 E58.97913
G1 X83.135 Y61.679 E58.98055
G1 X82.947 Y61.390 E58.99082
G1 X82.797 Y61.093 E59.00073
G1 X82.718 Y60.893 E59.00713
G1 X82.670 Y60.692 E59.01329
G1 X82.669 Y60.612 E59.01567
G0 F10500 X83.687 Y61.269
;TYPE:FILL
G1 F960 X85.559 Y59.397 E59.09452
G0 F10500 X84.402 Y59.653
G1 F960 X86.561 Y61.812 E59.18546
G0 F10500 X86.588 Y61.550
;TYPE:SKIN
G1 F1200 X84.907 Y63.231 E59.25626
G0 F10500 X84.526 Y62.905
G1 F1200 X84.782 Y62.295 E59.27190
G1 X84.230 Y62.140 E59.28550
G1 X84.319 Y61.344 E59.29847
G1 X83.838 Y61.472 E59.31330
G0 F10500 X83.540 Y61.062
G1 F1200 X85.409 Y59.194 E59.39200
G0 F10500 X85.709 Y59.601
G1 F1200 X85.438 Y60.224 E59.41446
G1 X86.057 Y59.959 E59.43451
G0 F10500 X84.746 Y59.149
G1 F1200 X84.531 Y59.365 E59.44359
G0 F10500 X86.038 Y60.686
G1 F1200 X86.508 Y60.569 E59.46004
G1 X86.105 Y61.325 E59.48555
G1 F600 E57.98555
G1 Z1.665
G0 F10500 X76.126 Y102.845
;TYPE:WALL-INNER
G1 Z1.565
G1 F600 E59.48555
G1 F840 X76.391 Y103.229 E59.49945
G1 X76.611 Y103.454 E59.50882
G1 X77.288 Y103.930 E59.53347
G1 X77.271 Y104.013 E59.53599
G1 X77.177 Y104.204 E59.54233
G1 X76.888 Y104.647 E59.55809
G1 X76.520 Y105.275 E59.57976
G1 X76.095 Y106.448 E59.61692
G1 X75.919 Y106.928 E59.63215
G1 X75.886 Y107.002 E59.63456
G1 X75.649 Y107.383 E59.64793
G1 X75.485 Y107.581 E59.65558
G1 X75.372 Y107.678 E59.66002
G1 X75.271 Y107.725 E59.66334
G1 X75.224 Y107.722 E59.66474
G1 X75.212 Y107.723 E59.66510
G1 X75.121 Y107.662 E59.66836
G1 X75.071 Y107.589 E59.67100
G1 X74.930 Y107.266 E59.68149
G1 X74.767 Y106.814 E59.69580
G1 X74.537 Y106.317 E59.71211
G1 X74.067 Y105.490 E59.74045
G1 X73.878 Y105.063 E59.75435
G1 X73.842 Y104.934 E59.75834
G1 X73.838 Y104.878 E59.76001
G1 X73.848 Y104.817 E59.76185
G1 X73.872 Y104.757 E59.76378
G1 X74.157 Y104.335 E59.77895
G1 X74.475 Y103.935 E59.79417
G1 X74.855 Y103.226 E59.81812
G1 X74.897 Y103.172 E59.82016
G1 X75.024 Y103.097 E59.82455
G1 X75.602 Y102.983 E59.84210
G1 X76.109 Y102.832 E59.85786
G1 X76.126 Y102.845 E59.85849
G0 F10500 X76.778 Y102.910
;TYPE:WALL-OUTER
G1 F720 X76.936 Y103.071 E59.86521
G1 X77.608 Y103.543 E59.88967
G1 X77.763 Y103.696 E59.89616
G1 X77.771 Y103.709 E59.89661
G1 X77.817 Y103.860 E59.90131
G1 X77.818 Y103.874 E59.90173
G1 X77.743 Y104.186 E59.91129
G1 X77.614 Y104.449 E59.92001
G1 X77.313 Y104.910 E59.93641
G1 X76.976 Y105.486 E59.95629
G1 X76.565 Y106.620 E59.99221
G1 X76.380 Y107.123 E60.00817
G1 X76.329 Y107.237 E60.01189
G1 X76.055 Y107.676 E60.02730
G1 X75.841 Y107.935 E60.03731
G1 X75.662 Y108.089 E60.04434
G1 X75.498 Y108.180 E60.04993
G1 X75.312 Y108.228 E60.05565
G1 X75.229 Y108.223 E60.05813
G1 X75.154 Y108.229 E60.06037
G1 X74.994 Y108.178 E60.06537
G1 X74.864 Y108.099 E60.06990
G1 X74.742 Y107.992 E60.07473
G1 X74.631 Y107.833 E60.08051
G1 X74.467 Y107.457 E60.09273
G1 X74.307 Y107.010 E60.10687
G1 X74.092 Y106.546 E60.12210
G1 X73.620 Y105.716 E60.15053
G1 X73.407 Y105.236 E60.16618
G1 X73.346 Y105.017 E60.17295
G1 X73.334 Y104.856 E60.17775
G1 X73.363 Y104.683 E60.18298
G1 X73.430 Y104.518 E60.18828
G1 X73.750 Y104.044 E60.20532
G1 X74.055 Y103.660 E60.21992
G1 X74.425 Y102.967 E60.24332
G1 X74.502 Y102.859 E60.24727
G1 X74.590 Y102.772 E60.25096
G1 X74.824 Y102.635 E60.25903
G1 X74.990 Y102.585 E60.26419
G1 X75.486 Y102.496 E60.27920
G1 X75.984 Y102.348 E60.29468
G1 X76.080 Y102.328 E60.29760
G1 X76.231 Y102.335 E60.30210
G1 X76.373 Y102.400 E60.30675
G1 X76.499 Y102.505 E60.31164
G1 X76.778 Y102.910 E60.32628
G0 F10500 X76.631 Y103.680
;TYPE:FILL
G1 F960 X74.470 Y105.841 E60.41730
G0 F10500 X74.927 Y106.747
G1 F960 X75.492 Y107.295 E60.44079
G1 X75.139 Y107.293 E60.45160
G1 X75.331 Y106.748 E60.45907
G1 X76.090 Y105.634 E60.48493
G1 X76.394 Y104.624 E60.50635
G1 X76.636 Y103.675 E60.53476
G1 X75.860 Y104.098 E60.56108
G0 F10500 X75.354 Y103.896
;TYPE:SKIN
G1 F1200 X76.114 Y103.137 E60.59307
G0 F10500 X75.330 Y103.213
G1 F1200 X74.748 Y103.796 E60.61761
G0 F10500 X75.209 Y104.042
G1 F1200 X74.106 Y105.144 E60.66405
G0 F10500 X74.341 Y105.617
G1 F1200 X74.886 Y105.425 E60.68545
G1 X74.778 Y106.240 E60.69917
G1 X74.833 Y106.539 E60.70822
G1 F600 E59.20822
G1 Z1.665
G0 F10500 X82.720 Y104.079
;TYPE:WALL-INNER
G1 Z1.565
G1 F600 E60.70822
G1 F840 X82.677 Y103.967 E60.71179
G1 X83.232 Y103.611 E60.73143
G1 X83.577 Y103.258 E60.74613
G1 X83.797 Y102.817 E60.76081
G1 X83.877 Y102.830 E60.76323
G1 X84.593 Y103.016 E60.78526
G1 X84.922 Y103.060 E60.79514
G1 X85.022 Y103.105 E60.79841
G1 X85.066 Y103.151 E60.80031
G1 X85.379 Y103.732 E60.81996
G1 X85.570 Y104.009 E60.82998
G1 X85.891 Y104.411 E60.84530
G1 X86.097 Y104.715 E60.85624
G1 X86.116 Y104.769 E60.85795
G1 X86.120 Y104.821 E60.85950
G1 X86.116 Y104.873 E60.86105
G1 X85.997 Y105.229 E60.87223
G1 X85.435 Y106.240 E60.90668
G1 X85.227 Y106.663 E60.92072
G1 X84.948 Y107.442 E60.94537
G1 X84.874 Y107.593 E60.95038
G1 X84.755 Y107.714 E60.95543
G1 X84.623 Y107.677 E60.95951
G1 X84.564 Y107.643 E60.96154
G1 X84.396 Y107.484 E60.96843
G1 X84.189 Y107.194 E60.97904
G1 X84.067 Y106.977 E60.98646
G1 X83.901 Y106.566 E60.99966
G1 X83.733 Y106.058 E61.01559
G1 X83.530 Y105.493 E61.03347
G1 X83.237 Y104.907 E61.05299
G1 X82.924 Y104.432 E61.06993
G1 X82.720 Y104.079 E61.08207
G0 F10500 X82.914 Y103.221
;TYPE:WALL-OUTER
G1 F720 X83.163 Y102.966 E61.09269
G1 X83.373 Y102.537 E61.10691
G1 X83.489 Y102.415 E61.11193
G1 X83.584 Y102.351 E61.11534
G1 X83.660 Y102.320 E61.11778
G1 X83.801 Y102.311 E61.12199
G1 X83.992 Y102.342 E61.12775
G1 X84.379 Y102.457 E61.13978
G1 X84.680 Y102.523 E61.14896
G1 X85.044 Y102.571 E61.15989
G1 X85.205 Y102.632 E61.16502
G1 X85.352 Y102.726 E61.17022
G1 X85.459 Y102.836 E61.17479
G1 X85.808 Y103.474 E61.19645
G1 X86.286 Y104.104 E61.22000
G1 X86.546 Y104.487 E61.23379
G1 X86.610 Y104.667 E61.23948
G1 X86.622 Y104.819 E61.24402
G1 X86.608 Y104.978 E61.24877
G1 X86.463 Y105.415 E61.26248
G1 X86.269 Y105.799 E61.27530
G1 X85.876 Y106.476 E61.29861
G1 X85.688 Y106.858 E61.31129
G1 X85.412 Y107.631 E61.33574
G1 X85.282 Y107.890 E61.34437
G1 X85.025 Y108.152 E61.35530
G1 X84.875 Y108.210 E61.36009
G1 X84.686 Y108.217 E61.36572
G1 X84.424 Y108.139 E61.37386
G1 X84.264 Y108.046 E61.37938
G1 X84.016 Y107.812 E61.38953
G1 X83.770 Y107.466 E61.40218
G1 X83.615 Y107.191 E61.41158
G1 X83.430 Y106.735 E61.42623
G1 X83.260 Y106.221 E61.44236
G1 X83.069 Y105.690 E61.45917
G1 X82.803 Y105.157 E61.47691
G1 X82.494 Y104.687 E61.49366
G1 X82.271 Y104.304 E61.50686
G1 X82.167 Y104.020 E61.51587
G1 X82.159 Y103.940 E61.51826
G1 X82.167 Y103.821 E61.52181
G1 X82.205 Y103.727 E61.52483
G1 X82.300 Y103.615 E61.52921
G1 X82.914 Y103.221 E61.55094
G0 F10500 X83.063 Y104.320
;TYPE:FILL
G1 F960 X84.271 Y103.111 E61.60184
G0 F10500 X84.552 Y103.184
;TYPE:SKIN
G1 F1200 X83.202 Y104.534 E61.65870
G0 F10500 X82.933 Y104.096
G1 F1200 X83.473 Y103.556 E61.66880
G1 X83.990 Y103.038 E61.69060
G0 F10500 X84.605 Y103.838
G1 F1200 X85.142 Y103.654 E61.70784
G1 X84.977 Y104.526 E61.72576
G1 X85.569 Y104.288 E61.74476
G0 F10500 X85.871 Y104.694
G1 F1200 X85.057 Y105.507 E61.77903
G0 F10500 X85.485 Y105.786
G1 F1200 X84.776 Y106.495 E61.79928
G1 X84.424 Y107.200 E61.81068
G1 X84.886 Y107.092 E61.82481
G0 F10500 X84.065 Y106.500
G1 F1200 X84.103 Y106.107 E61.83549
G1 X83.893 Y105.610 E61.84381
G1 X83.666 Y105.130 E61.85077
G1 X83.826 Y104.617 E61.86678
G1 F600 E60.36678
G1 Z1.665
G0 F10500 X81.658 Y107.829
;TYPE:SUPPORT
G1 Z1.565
G1 F600 E61.86678
G1 F1200 X81.658 Y110.211 E61.93772
G0 F10500 X81.535 Y110.088
G0 X78.325 Y110.543
G0 X78.325 Y110.718
G1 F1200 X78.325 Y107.793 E62.02484
G1 F600 E60.52484
G1 Z1.665
G0 F10500 X81.658 Y101.030
G1 Z1.565
G1 F600 E62.02484
G1 F1200 X81.658 Y57.856 E63.31071
G0 F10500 X81.591 Y58.017
G0 X78.325 Y57.343
G0 X78.325 Y57.168
G1 F1200 X78.325 Y98.106 E64.52998
G0 F10500 X78.403 Y97.951
G0 X77.799 Y96.971
G0 X76.267 Y95.508
G0 X75.046 Y95.149
G0 X74.992 Y95.313
G1 F1200 X74.992 Y65.836 E65.40790
G0 F10500 X74.925 Y65.996
G0 X76.568 Y66.748
G0 X77.213 Y65.529
G0 X78.465 Y60.426
G0 X83.191 Y66.549
G0 X84.825 Y65.951
G0 X84.991 Y65.896
G1 F1200 X84.991 Y94.974 E66.27394
G1 F600 E64.77394
G1 Z1.665
G0 F10500 X81.658 Y52.624
G1 Z1.565
G1 F600 E66.27394
G1 F1200 X81.658 Y44.352 E66.52031
G0 F10500 X81.616 Y44.521
G0 X78.367 Y44.566
G0 X78.325 Y44.395
G1 F1200 X78.325 Y51.099 E66.71998
;LAYER:4
M106 S255
G1 F600 E65.21998
G1 Z1.665
G0 F10500 X75.257 Y59.261 Z1.945
;TYPE:WALL-INNER
G1 Z1.945
G1 F600 E66.71998
G1 F840 X75.332 Y59.265 E66.72222
G1 X75.607 Y59.698 E66.73749
G1 X75.920 Y60.165 E66.75424
G1 X76.184 Y60.476 E66.76639
G1 X76.311 Y60.571 E66.77111
G1 X76.586 Y60.715 E66.78036
G1 X76.641 Y60.875 E66.78540
G1 X76.648 Y60.933 E66.78714
G1 X76.645 Y61.031 E66.79006
G1 X76.611 Y61.165 E66.79417
G1 X76.490 Y61.445 E66.80326
G1 X76.347 Y61.666 E66.81110
G1 X75.990 Y62.116 E66.82821
G1 X75.807 Y62.514 E66.84125
G1 X75.673 Y63.081 E66.85861
G1 X75.639 Y63.169 E66.86141
G1 X75.577 Y63.286 E66.86536
G1 X75.552 Y63.321 E66.86664
G1 X75.361 Y63.499 E66.87442
G1 X75.288 Y63.542 E66.87694
G1 X75.215 Y63.560 E66.87918
G1 X75.113 Y63.567 E66.88222
G1 X74.986 Y63.560 E66.88601
G1 X74.652 Y63.503 E66.89610
G1 X74.476 Y63.450 E66.90158
G1 X74.215 Y63.326 E66.91018
G1 X74.035 Y63.171 E66.91726
G1 X73.605 Y62.641 E66.93759
G1 X73.451 Y62.376 E66.94671
G1 X73.386 Y62.207 E66.95211
G1 X73.319 Y61.932 E66.96054
G1 X73.277 Y61.471 E66.97432
G1 X73.274 Y61.124 E66.98466
G1 X73.295 Y60.834 E66.99332
G1 X73.363 Y60.559 E67.00176
G1 X73.444 Y60.409 E67.00683
G1 X73.496 Y60.348 E67.00922
G1 X73.885 Y59.989 E67.02499
G1 X74.059 Y59.819 E67.03223
G1 X74.170 Y59.673 E67.03769
G1 X74.547 Y59.294 E67.05361
G1 X74.616 Y59.269 E67.05580
G1 X74.777 Y59.267 E67.06060
G1 X74.991 Y59.274 E67.06697
G1 X75.257 Y59.261 E67.07490
G0 F10500 X74.987 Y58.773
;TYPE:WALL-OUTER
G1 F720 X75.260 Y58.761 E67.08304
G1 X75.441 Y58.770 E67.08844
G1 X75.569 Y58.809 E67.09243
G1 X75.746 Y58.977 E67.09969
G1 X76.027 Y59.426 E67.11547
G1 X76.319 Y59.863 E67.13112
G1 X76.529 Y60.109 E67.14076
G1 X76.904 Y60.317 E67.15353
G1 X77.034 Y60.466 E67.15942
G1 X77.058 Y60.523 E67.16126
G1 X77.065 Y60.570 E67.16268
G1 X77.132 Y60.764 E67.16879
G1 X77.150 Y60.909 E67.17314
G1 X77.144 Y61.103 E67.17892
G1 X77.088 Y61.322 E67.18565
G1 X76.932 Y61.683 E67.19737
G1 X76.755 Y61.955 E67.20703
G1 X76.419 Y62.379 E67.22314
G1 X76.282 Y62.677 E67.23291
G1 X76.152 Y63.230 E67.24983
G1 X76.096 Y63.374 E67.25443
G1 X76.003 Y63.549 E67.26034
G1 X75.931 Y63.652 E67.26408
G1 X75.663 Y63.901 E67.27497
G1 X75.507 Y63.992 E67.28035
G1 X75.445 Y64.018 E67.28236
G1 X75.295 Y64.056 E67.28696
G1 X75.119 Y64.067 E67.29222
G1 X74.925 Y64.057 E67.29800
G1 X74.540 Y63.991 E67.30964
G1 X74.297 Y63.918 E67.31719
G1 X73.936 Y63.746 E67.32910
G1 X73.678 Y63.524 E67.33924
G1 X73.222 Y62.963 E67.36077
G1 X73.189 Y62.925 E67.36227
G1 X72.997 Y62.590 E67.37377
G1 X72.908 Y62.358 E67.38117
G1 X72.824 Y62.013 E67.39175
G1 X72.777 Y61.497 E67.40718
G1 X72.774 Y61.097 E67.41909
G1 X72.799 Y60.759 E67.42919
G1 X72.890 Y60.390 E67.44051
G1 X73.036 Y60.117 E67.44973
G1 X73.138 Y59.997 E67.45442
G1 X73.540 Y59.627 E67.47069
G1 X73.683 Y59.487 E67.47665
G1 X73.790 Y59.347 E67.48190
G1 X74.267 Y58.870 E67.50199
G1 X74.288 Y58.856 E67.50274
G1 X74.527 Y58.770 E67.51031
G1 X74.787 Y58.767 E67.51805
G1 X74.987 Y58.773 E67.52401
G0 F10500 X74.977 Y59.122
G0 X75.817 Y62.068
;TYPE:FILL
G1 F960 X74.584 Y63.300 E67.57592
G0 F10500 X74.654 Y62.987
;TYPE:SKIN
G1 F1200 X75.264 Y63.244 E67.59276
G1 X75.447 Y62.720 E67.60116
G1 X75.503 Y62.421 E67.61022
G0 F10500 X76.141 Y61.645
G1 F1200 X75.994 Y61.499 E67.61639
G0 F10500 X76.405 Y61.202
G1 F1200 X74.645 Y59.442 E67.69052
G0 F10500 X74.293 Y59.797
G1 F1200 X75.268 Y60.772 E67.73158
G0 F10500 X74.421 Y60.632
G1 F1200 X73.770 Y60.335 E67.75128
G1 X73.926 Y61.199 E67.77240
G1 X73.466 Y61.445 E67.78558
G1 X73.695 Y62.028 E67.80424
G1 F600 E66.30424
G1 Z2.045
G0 F10500 X83.389 Y60.865
;TYPE:WALL-INNER
G1 Z1.945
G1 F600 E67.80424
G1 F840 X83.396 Y60.763 E67.80728
G1 X83.413 Y60.719 E67.80868
G1 X83.774 Y60.491 E67.82140
G1 X84.003 Y60.262 E67.83105
G1 X84.419 Y59.594 E67.85448
G1 X84.605 Y59.270 E67.86561
G1 X84.648 Y59.273 E67.86690
G1 X84.754 Y59.296 E67.87013
G1 X85.357 Y59.273 E67.88810
G1 X85.425 Y59.307 E67.89036
G1 X85.768 Y59.655 E67.90492
G1 X86.132 Y60.034 E67.92057
G1 X86.595 Y60.455 E67.93920
G1 X86.634 Y60.507 E67.94114
G1 X86.677 Y60.600 E67.94419
G1 X86.723 Y60.768 E67.94938
G1 X86.747 Y61.008 E67.95656
G1 X86.754 Y61.313 E67.96565
G1 X86.751 Y61.453 E67.96982
G1 X86.703 Y61.895 E67.98306
G1 X86.631 Y62.219 E67.99295
G1 X86.508 Y62.491 E68.00184
G1 X86.257 Y62.857 E68.01506
G1 X85.964 Y63.197 E68.02842
G1 X85.828 Y63.309 E68.03367
G1 X85.747 Y63.358 E68.03649
G1 X85.306 Y63.511 E68.05039
G1 X85.141 Y63.548 E68.05543
G1 X84.815 Y63.579 E68.06518
G1 X84.640 Y63.553 E68.07045
G1 X84.591 Y63.532 E68.07204
G1 X84.521 Y63.483 E68.07458
G1 X84.419 Y63.381 E68.07888
G1 X84.327 Y63.255 E68.08353
G1 X84.258 Y63.094 E68.08874
G1 X84.101 Y62.447 E68.10857
G1 X83.861 Y61.971 E68.12445
G1 X83.615 Y61.627 E68.13705
G1 X83.520 Y61.443 E68.14321
G1 X83.391 Y61.123 E68.15349
G1 X83.370 Y61.042 E68.15598
G1 X83.369 Y60.983 E68.15774
G1 X83.389 Y60.865 E68.16130
G0 F10500 X82.939 Y60.558
;TYPE:WALL-OUTER
G1 F720 X82.971 Y60.444 E68.16483
G1 X83.026 Y60.372 E68.16753
G1 X83.453 Y60.102 E68.18258
G1 X83.615 Y59.939 E68.18942
G1 X83.988 Y59.341 E68.21041
G1 X84.243 Y58.914 E68.22522
G1 X84.399 Y58.800 E68.23098
G1 X84.511 Y58.762 E68.23450
G1 X84.799 Y58.794 E68.24313
G1 X85.402 Y58.771 E68.26110
G1 X85.533 Y58.800 E68.26510
G1 X85.624 Y58.840 E68.26806
G1 X85.744 Y58.919 E68.27234
G1 X86.128 Y59.308 E68.28862
G1 X86.481 Y59.675 E68.30378
G1 X86.969 Y60.119 E68.32343
G1 X87.066 Y60.251 E68.32831
G1 X87.150 Y60.432 E68.33426
G1 X87.215 Y60.671 E68.34163
G1 X87.246 Y60.985 E68.35103
G1 X87.254 Y61.308 E68.36065
G1 X87.250 Y61.483 E68.36587
G1 X87.197 Y61.977 E68.38066
G1 X87.108 Y62.377 E68.39287
G1 X86.946 Y62.737 E68.40463
G1 X86.649 Y63.170 E68.42027
G1 X86.318 Y63.553 E68.43534
G1 X86.118 Y63.719 E68.44308
G1 X85.959 Y63.814 E68.44860
G1 X85.451 Y63.990 E68.46461
G1 X85.214 Y64.044 E68.47185
G1 X84.800 Y64.082 E68.48423
G1 X84.503 Y64.038 E68.49318
G1 X84.351 Y63.974 E68.49809
G1 X84.202 Y63.870 E68.50350
G1 X84.033 Y63.701 E68.51062
G1 X83.892 Y63.508 E68.51774
G1 X83.787 Y63.265 E68.52562
G1 X83.754 Y63.159 E68.52893
G1 X83.628 Y62.619 E68.54544
G1 X83.432 Y62.230 E68.55842
G1 X83.189 Y61.889 E68.57089
G1 X83.064 Y61.650 E68.57892
G1 X82.917 Y61.283 E68.59069
G1 X82.871 Y61.112 E68.59597
G1 X82.868 Y60.947 E68.60088
G1 X82.889 Y60.823 E68.60463
G1 X82.889 Y60.744 E68.60698
G1 X82.921 Y60.593 E68.61158
G1 X82.939 Y60.558 E68.61275
G0 F10500 X83.652 Y61.304
;TYPE:FILL
G1 F960 X85.411 Y59.545 E68.68684
G0 F10500 X84.515 Y59.766
G1 F960 X86.537 Y61.788 E68.77201
G0 F10500 X86.336 Y61.941
;TYPE:SKIN
G1 F1200 X86.480 Y62.085 E68.77807
G0 F10500 X86.571 Y61.469
G1 F1200 X84.647 Y59.545 E68.85911
G0 F10500 X84.379 Y59.984
G1 F1200 X84.794 Y60.752 E68.88672
G1 X83.907 Y60.572 E68.90581
G1 X83.914 Y61.287 E68.92259
G1 X84.051 Y61.777 E68.93774
G0 F10500 X85.262 Y59.452
G1 F1200 X86.527 Y60.718 E68.99105
G1 F600 E67.49105
G1 Z2.045
G0 F10500 X84.164 Y103.013
;TYPE:WALL-INNER
G1 Z1.945
G1 F600 E68.99105
G1 F840 X84.799 Y103.115 E69.01020
G1 X84.891 Y103.131 E69.01298
G1 X84.942 Y103.158 E69.01470
G1 X85.001 Y103.221 E69.01727
G1 X85.211 Y103.621 E69.03073
G1 X85.445 Y103.987 E69.04367
G1 X85.742 Y104.383 E69.05841
G1 X85.856 Y104.574 E69.06503
G1 X85.888 Y104.672 E69.06810
G1 X85.895 Y104.798 E69.07186
G1 X85.887 Y104.910 E69.07521
G1 X85.777 Y105.236 E69.08545
G1 X85.729 Y105.346 E69.08903
G1 X85.476 Y105.826 E69.10519
G1 X85.246 Y106.309 E69.12112
G1 X84.939 Y107.258 E69.15083
G1 X84.860 Y107.449 E69.15698
G1 X84.791 Y107.557 E69.16080
G1 X84.710 Y107.637 E69.16419
G1 X84.698 Y107.637 E69.16455
G1 X84.625 Y107.621 E69.16677
G1 X84.519 Y107.578 E69.17018
G1 X84.250 Y107.329 E69.18110
G1 X84.120 Y107.151 E69.18766
G1 X84.022 Y106.987 E69.19335
G1 X83.813 Y106.470 E69.20996
G1 X83.595 Y105.540 E69.23841
G1 X83.361 Y104.867 E69.25963
G1 X82.987 Y104.112 E69.28473
G1 X82.944 Y103.967 E69.28923
G1 X83.374 Y103.643 E69.30527
G1 X83.497 Y103.541 E69.31003
G1 X83.704 Y103.295 E69.31960
G1 X83.909 Y102.950 E69.33155
G1 X84.164 Y103.013 E69.33938
G0 F10500 X84.264 Y102.523
;TYPE:WALL-OUTER
G1 F720 X84.881 Y102.623 E69.35799
G1 X85.051 Y102.651 E69.36312
G1 X85.252 Y102.756 E69.36988
G1 X85.420 Y102.943 E69.37737
G1 X85.644 Y103.370 E69.39173
G1 X86.158 Y104.105 E69.41844
G1 X86.314 Y104.366 E69.42750
G1 X86.384 Y104.580 E69.43420
G1 X86.396 Y104.807 E69.44097
G1 X86.381 Y105.009 E69.44700
G1 X86.246 Y105.411 E69.45963
G1 X86.174 Y105.574 E69.46494
G1 X85.923 Y106.050 E69.48097
G1 X85.711 Y106.496 E69.49568
G1 X85.411 Y107.426 E69.52478
G1 X85.306 Y107.679 E69.53294
G1 X85.189 Y107.864 E69.53946
G1 X85.080 Y107.980 E69.54420
G1 X84.969 Y108.073 E69.54851
G1 X84.815 Y108.133 E69.55343
G1 X84.647 Y108.139 E69.55844
G1 X84.477 Y108.100 E69.56364
G1 X84.286 Y108.024 E69.56976
G1 X84.238 Y107.997 E69.57140
G1 X83.869 Y107.655 E69.58638
G1 X83.702 Y107.426 E69.59482
G1 X83.577 Y107.217 E69.60208
G1 X83.336 Y106.620 E69.62125
G1 X83.112 Y105.671 E69.65029
G1 X82.906 Y105.076 E69.66905
G1 X82.713 Y104.713 E69.68129
G1 X82.519 Y104.291 E69.69512
G1 X82.429 Y103.990 E69.70448
G1 X82.425 Y103.962 E69.70532
G1 X82.444 Y103.834 E69.70918
G1 X82.505 Y103.709 E69.71332
G1 X82.593 Y103.607 E69.71733
G1 X83.064 Y103.250 E69.73493
G1 X83.144 Y103.184 E69.73802
G1 X83.295 Y103.004 E69.74502
G1 X83.549 Y102.578 E69.75979
G1 X83.660 Y102.481 E69.76418
G1 X83.719 Y102.450 E69.76617
G1 X83.842 Y102.430 E69.76988
G1 X84.264 Y102.523 E69.78275
G0 F10500 X84.189 Y103.193
;TYPE:FILL
G1 F960 X83.212 Y104.170 E69.82390
G0 F10500 X83.162 Y104.022
;TYPE:SKIN
G1 F1200 X84.030 Y104.890 E69.86046
G0 F10500 X83.676 Y105.243
G1 F1200 X83.856 Y105.423 E69.86804
G0 F10500 X84.753 Y104.905
G1 F1200 X85.180 Y105.687 E69.89591
G1 X85.180 Y106.039 E69.90639
G0 F10500 X85.641 Y105.087
G1 F1200 X83.884 Y103.330 E69.98040
G0 F10500 X83.561 Y103.714
G1 F1200 X84.253 Y104.405 E70.00952
G0 F10500 X85.217 Y103.956
G1 F1200 X84.507 Y103.245 E70.03945
G1 F600 E68.53945
G1 Z2.045
G0 F10500 X76.921 Y104.239
;TYPE:WALL-INNER
G1 Z1.945
G1 F600 E70.03945
G1 F840 X76.670 Y104.752 E70.05646
G1 X76.539 Y105.032 E70.06566
G1 X76.329 Y105.680 E70.08595
G1 X76.091 Y106.618 E70.11477
G1 X75.973 Y106.925 E70.12457
G1 X75.854 Y107.133 E70.13171
G1 X75.656 Y107.395 E70.14149
G1 X75.559 Y107.499 E70.14572
G1 X75.436 Y107.598 E70.15043
G1 X75.332 Y107.650 E70.15389
G1 X75.305 Y107.653 E70.15470
G1 X75.206 Y107.620 E70.15781
G1 X75.183 Y107.604 E70.15864
G1 X75.132 Y107.542 E70.16103
G1 X75.063 Y107.416 E70.16531
G1 X74.820 Y106.682 E70.18834
G1 X74.585 Y106.108 E70.20681
G1 X74.507 Y105.926 E70.21271
G1 X74.273 Y105.481 E70.22768
G1 X74.094 Y105.071 E70.24101
G1 X74.064 Y104.943 E70.24492
G1 X74.062 Y104.825 E70.24844
G1 X74.080 Y104.719 E70.25164
G1 X74.130 Y104.592 E70.25570
G1 X74.336 Y104.257 E70.26742
G1 X74.712 Y103.711 E70.28716
G1 X74.939 Y103.265 E70.30207
G1 X75.032 Y103.183 E70.30576
G1 X75.115 Y103.147 E70.30845
G1 X75.475 Y103.091 E70.31931
G1 X76.031 Y102.954 E70.33636
G1 X76.086 Y103.009 E70.33868
G1 X76.265 Y103.298 E70.34880
G1 X76.428 Y103.493 E70.35637
G1 X77.022 Y103.955 E70.37878
G1 X76.921 Y104.239 E70.38776
G0 F10500 X76.777 Y103.131
;TYPE:WALL-OUTER
G1 F720 X77.436 Y103.645 E70.41265
G1 X77.476 Y103.704 E70.41478
G1 X77.533 Y103.866 E70.41989
G1 X77.534 Y103.883 E70.42040
G1 X77.511 Y104.075 E70.42616
G1 X77.382 Y104.432 E70.43746
G1 X77.121 Y104.967 E70.45519
G1 X77.005 Y105.216 E70.46337
G1 X76.810 Y105.818 E70.48222
G1 X76.569 Y106.771 E70.51150
G1 X76.427 Y107.138 E70.52322
G1 X76.273 Y107.410 E70.53253
G1 X75.901 Y107.865 E70.55003
G1 X75.706 Y108.021 E70.55747
G1 X75.545 Y108.106 E70.56289
G1 X75.447 Y108.138 E70.56596
G1 X75.324 Y108.155 E70.56966
G1 X75.206 Y108.148 E70.57318
G1 X74.965 Y108.062 E70.58080
G1 X74.840 Y107.974 E70.58535
G1 X74.716 Y107.824 E70.59115
G1 X74.607 Y107.623 E70.59796
G1 X74.350 Y106.853 E70.62214
G1 X74.124 Y106.301 E70.63990
G1 X74.055 Y106.141 E70.64509
G1 X73.824 Y105.702 E70.65987
G1 X73.618 Y105.230 E70.67520
G1 X73.565 Y105.003 E70.68215
G1 X73.561 Y104.785 E70.68864
G1 X73.595 Y104.587 E70.69462
G1 X73.680 Y104.369 E70.70159
G1 X73.923 Y103.974 E70.71541
G1 X74.275 Y103.466 E70.73381
G1 X74.514 Y102.996 E70.74952
G1 X74.523 Y102.980 E70.75006
G1 X74.623 Y102.869 E70.75451
G1 X74.772 Y102.751 E70.76017
G1 X74.976 Y102.663 E70.76679
G1 X75.986 Y102.451 E70.79753
G1 X76.007 Y102.446 E70.79817
G1 X76.190 Y102.457 E70.80363
G1 X76.294 Y102.511 E70.80712
G1 X76.480 Y102.695 E70.81491
G1 X76.671 Y103.004 E70.82573
G1 X76.777 Y103.131 E70.83066
G0 F10500 X76.524 Y103.787
;TYPE:FILL
G1 F960 X74.595 Y105.716 E70.91191
G0 F10500 X75.075 Y106.895
G1 F960 X75.492 Y107.312 E70.92947
G0 F10500 X75.024 Y105.783
;TYPE:SKIN
G1 F1200 X74.263 Y105.022 E70.96153
G0 F10500 X74.412 Y104.464
G1 F1200 X75.150 Y105.202 E70.99261
G0 F10500 X75.300 Y104.645
G1 F1200 X74.829 Y103.820 E71.01808
G1 X75.436 Y104.074 E71.03767
G0 F10500 X75.608 Y104.245
G1 F1200 X76.363 Y105.001 E71.06949
G0 F10500 X76.068 Y105.413
G1 F1200 X76.155 Y105.500 E71.07316
G0 F10500 X76.588 Y104.519
G1 F1200 X75.355 Y103.286 E71.12509
G0 F10500 X75.934 Y103.157
G1 F1200 X76.371 Y103.594 E71.12929
G1 X76.808 Y104.032 E71.14772
G1 F600 E69.64772
G1 Z2.045
G0 F10500 X81.658 Y52.624
;TYPE:SUPPORT
G1 Z1.945
G1 F600 E71.14772
G1 F1200 X81.658 Y44.352 E71.39409
G0 F10500 X81.616 Y44.521
G0 X78.367 Y44.566
G0 X78.325 Y44.395
G1 F1200 X78.325 Y51.099 E71.59375
G1 F600 E70.09375
G1 Z2.045
G0 F10500 X78.325 Y57.168
G1 Z1.945
G1 F600 E71.59375
G1 F1200 X78.325 Y98.106 E72.81303
G0 F10500 X78.403 Y97.951
G0 X77.799 Y96.971
G0 X76.267 Y95.508
G0 X75.046 Y95.149
G0 X74.992 Y95.313
G1 F1200 X74.992 Y65.836 E73.69095
G0 F10500 X74.925 Y65.996
G0 X76.568 Y66.748
G0 X77.213 Y65.529
G0 X78.257 Y60.508
G0 X83.191 Y66.549
G0 X84.825 Y65.951
G0 X84.991 Y65.896
G1 F1200 X84.991 Y94.974 E74.55699
G0 F10500 X84.937 Y94.808
G0 X82.990 Y95.555
G0 X81.592 Y100.867
G0 X81.658 Y101.030
G1 F1200 X81.658 Y57.857 E75.84283
G1 F600 E74.34283
G1 Z2.045
G0 F10500 X81.658 Y107.829
G1 Z1.945
G1 F600 E75.84283
G1 F1200 X81.658 Y110.211 E75.91377
G0 F10500 X81.535 Y110.088
G0 X78.325 Y110.543
G0 X78.325 Y110.718
G1 F1200 X78.325 Y107.793 E76.00089
;LAYER:5
G1 F600 E74.50089
G1 Z2.045
G0 F10500 X75.136 Y63.741 Z2.325
;TYPE:WALL-INNER
G1 Z2.325
G1 F600 E76.00089
G1 F780 X74.652 Y63.651 E76.01555
G1 X74.296 Y63.530 E76.02675
G1 X74.110 Y63.420 E76.03319
G1 X74.030 Y63.347 E76.03641
G1 X73.872 Y63.159 E76.04373
G1 X73.781 Y63.021 E76.04865
G1 X73.521 Y62.443 E76.06753
G1 X73.401 Y61.879 E76.08470
G1 X73.360 Y61.455 E76.09739
G1 X73.385 Y60.903 E76.11384
G1 X73.449 Y60.749 E76.11881
G1 X73.941 Y60.247 E76.13975
G1 X74.233 Y59.946 E76.15224
G1 X74.537 Y59.721 E76.16350
G1 X74.585 Y59.675 E76.16548
G1 X74.697 Y59.607 E76.16938
G1 X74.867 Y59.629 E76.17449
G1 X75.210 Y59.637 E76.18471
G1 X75.223 Y59.648 E76.18521
G1 X75.643 Y60.071 E76.20297
G1 X75.672 Y60.108 E76.20437
G1 X75.947 Y60.497 E76.21856
G1 X76.259 Y60.774 E76.23098
G1 X76.439 Y60.899 E76.23751
G1 X76.491 Y61.003 E76.24097
G1 X76.539 Y61.186 E76.24661
G1 X76.540 Y61.208 E76.24726
G1 X76.350 Y61.725 E76.26367
G1 X76.328 Y61.810 E76.26628
G1 X76.013 Y62.355 E76.28503
G1 X75.902 Y62.606 E76.29320
G1 X75.739 Y63.237 E76.31261
G1 X75.696 Y63.337 E76.31586
G1 X75.615 Y63.461 E76.32027
G1 X75.481 Y63.605 E76.32613
G1 X75.374 Y63.684 E76.33009
G1 X75.231 Y63.738 E76.33464
G1 X75.136 Y63.741 E76.33747
G0 F10500 X75.119 Y64.242
;TYPE:WALL-OUTER
G1 F660 X75.096 Y64.241 E76.33816
G1 X74.524 Y64.135 E76.35548
G1 X74.084 Y63.986 E76.36932
G1 X73.814 Y63.826 E76.37867
G1 X73.665 Y63.692 E76.38463
G1 X73.351 Y63.279 E76.40009
G1 X73.186 Y62.956 E76.41089
G1 X73.040 Y62.586 E76.42274
G1 X72.907 Y61.958 E76.44185
G1 X72.860 Y61.465 E76.45660
G1 X72.876 Y60.913 E76.47305
G1 X72.935 Y60.662 E76.48073
G1 X73.030 Y60.470 E76.48711
G1 X73.193 Y60.280 E76.49457
G1 X73.586 Y59.894 E76.51097
G1 X73.905 Y59.566 E76.52460
G1 X74.277 Y59.276 E76.53865
G1 X74.537 Y59.119 E76.54770
G1 X74.648 Y59.098 E76.55106
G1 X74.904 Y59.130 E76.55874
G1 X75.335 Y59.139 E76.57158
G1 X75.420 Y59.164 E76.57422
G1 X75.573 Y59.289 E76.58011
G1 X75.645 Y59.371 E76.58336
G1 X76.014 Y59.735 E76.59879
G1 X76.074 Y59.810 E76.60165
G1 X76.322 Y60.162 E76.61448
G1 X76.568 Y60.380 E76.62427
G1 X76.798 Y60.539 E76.63260
G1 X76.844 Y60.593 E76.63471
G1 X76.962 Y60.825 E76.64246
G1 X77.035 Y61.107 E76.65114
G1 X77.044 Y61.250 E76.65540
G1 X77.013 Y61.382 E76.65944
G1 X76.827 Y61.877 E76.67519
G1 X76.797 Y61.993 E76.67876
G1 X76.458 Y62.586 E76.69910
G1 X76.376 Y62.771 E76.70513
G1 X76.213 Y63.399 E76.72445
G1 X76.130 Y63.587 E76.73058
G1 X76.006 Y63.774 E76.73726
G1 X75.817 Y63.978 E76.74554
G1 X75.636 Y64.113 E76.75227
G1 X75.484 Y64.186 E76.75729
G1 X75.304 Y64.237 E76.76286
G1 X75.119 Y64.242 E76.76837
G0 F10500 X74.478 Y63.407
;TYPE:FILL
G1 F900 X76.170 Y61.714 E76.83966
G0 F10500 X75.919 Y61.613
;TYPE:SKIN
G1 F1140 X76.189 Y60.988 E76.85799
G1 X75.262 Y61.209 E76.88075
G1 X75.685 Y60.432 E76.90710
G0 F10500 X75.367 Y60.043
G1 F1140 X74.439 Y60.971 E76.94619
G0 F10500 X74.227 Y61.183
G1 F1140 X73.572 Y61.838 E76.97378
G0 F10500 X73.549 Y61.154
G1 F1140 X74.898 Y59.804 E77.03062
G0 F10500 X75.772 Y62.467
G1 F1140 X75.251 Y62.987 E77.04452
G1 X74.612 Y63.273 E77.05774
G1 X74.079 Y63.098 E77.06776
G1 X74.097 Y62.727 E77.07883
G1 F600 E75.57883
G1 Z2.425
G0 F10500 X83.505 Y61.103
;TYPE:WALL-INNER
G1 Z2.325
G1 F600 E77.07883
G1 F780 X83.590 Y60.886 E77.08577
G1 X83.746 Y60.776 E77.09145
G1 X84.074 Y60.483 E77.10455
G1 X84.259 Y60.186 E77.11497
G1 X84.392 Y60.013 E77.12147
G1 X84.773 Y59.639 E77.13737
G1 X84.814 Y59.638 E77.13859
G1 X84.865 Y59.644 E77.14012
G1 X85.312 Y59.614 E77.15347
G1 X85.376 Y59.635 E77.15547
G1 X85.422 Y59.669 E77.15718
G1 X85.520 Y59.764 E77.16124
G1 X85.677 Y59.875 E77.16697
G1 X86.052 Y60.236 E77.18247
G1 X86.311 Y60.506 E77.19361
G1 X86.582 Y60.753 E77.20454
G1 X86.630 Y60.868 E77.20825
G1 X86.655 Y61.003 E77.21234
G1 X86.664 Y61.490 E77.22684
G1 X86.571 Y62.201 E77.24820
G1 X86.484 Y62.513 E77.25785
G1 X86.422 Y62.681 E77.26318
G1 X86.278 Y62.962 E77.27258
G1 X86.184 Y63.111 E77.27783
G1 X85.978 Y63.350 E77.28723
G1 X85.826 Y63.470 E77.29300
G1 X85.519 Y63.600 E77.30293
G1 X84.968 Y63.742 E77.31987
G1 X84.818 Y63.757 E77.32436
G1 X84.728 Y63.748 E77.32706
G1 X84.552 Y63.682 E77.33265
G1 X84.467 Y63.625 E77.33570
G1 X84.340 Y63.492 E77.34118
G1 X84.248 Y63.352 E77.34617
G1 X84.167 Y63.189 E77.35159
G1 X83.981 Y62.447 E77.37437
G1 X83.818 Y62.085 E77.38620
G1 X83.754 Y61.977 E77.38994
G1 X83.684 Y61.796 E77.39572
G1 X83.667 Y61.727 E77.39783
G1 X83.484 Y61.211 E77.41414
G1 X83.505 Y61.103 E77.41742
G0 F10500 X83.687 Y60.158
;TYPE:WALL-OUTER
G1 F660 X83.848 Y59.900 E77.42647
G1 X84.008 Y59.692 E77.43429
G1 X84.505 Y59.204 E77.45503
G1 X84.625 Y59.140 E77.45908
G1 X84.837 Y59.138 E77.46540
G1 X84.875 Y59.142 E77.46654
G1 X85.378 Y59.108 E77.48155
G1 X85.623 Y59.196 E77.48931
G1 X85.742 Y59.282 E77.49368
G1 X85.840 Y59.378 E77.49776
G1 X85.995 Y59.486 E77.50339
G1 X86.399 Y59.876 E77.52011
G1 X86.656 Y60.143 E77.53115
G1 X86.912 Y60.366 E77.54126
G1 X87.007 Y60.482 E77.54573
G1 X87.083 Y60.643 E77.55103
G1 X87.154 Y60.955 E77.56056
G1 X87.164 Y61.512 E77.57715
G1 X87.140 Y61.837 E77.58686
G1 X87.059 Y62.313 E77.60124
G1 X86.962 Y62.661 E77.61200
G1 X86.877 Y62.890 E77.61928
G1 X86.711 Y63.214 E77.63012
G1 X86.587 Y63.409 E77.63700
G1 X86.326 Y63.712 E77.64891
G1 X86.124 Y63.875 E77.65664
G1 X85.687 Y64.072 E77.67092
G1 X85.049 Y64.236 E77.69054
G1 X84.819 Y64.259 E77.69742
G1 X84.612 Y64.238 E77.70362
G1 X84.322 Y64.129 E77.71285
G1 X84.144 Y64.010 E77.71922
G1 X83.948 Y63.806 E77.72765
G1 X83.813 Y63.599 E77.73501
G1 X83.693 Y63.357 E77.74306
G1 X83.575 Y62.852 E77.75850
G1 X83.510 Y62.618 E77.76573
G1 X83.373 Y62.316 E77.77561
G1 X83.302 Y62.196 E77.77976
G1 X83.018 Y61.413 E77.80457
G1 X82.982 Y61.262 E77.80919
G1 X82.984 Y61.166 E77.81205
G1 X83.022 Y60.969 E77.81803
G1 X83.142 Y60.652 E77.82812
G1 X83.213 Y60.554 E77.83173
G1 X83.437 Y60.381 E77.84016
G1 X83.687 Y60.158 E77.85014
G0 F10500 X84.701 Y59.952
;TYPE:FILL
G1 F900 X86.458 Y61.709 E77.92414
G0 F10500 X85.158 Y59.798
G1 F900 X83.688 Y61.267 E77.98604
G0 F10500 X83.782 Y61.528
;TYPE:SKIN
G1 F1140 X85.410 Y59.900 E78.05461
G0 F10500 X85.791 Y60.226
G1 F1140 X84.898 Y61.119 E78.09222
G0 F10500 X85.686 Y61.038
G1 F1140 X86.304 Y60.773 E78.11137
G1 X86.081 Y61.702 E78.13242
G1 X86.462 Y61.676 E78.14380
G1 F600 E76.64380
G1 Z2.425
G0 F10500 X84.794 Y103.251
;TYPE:WALL-INNER
G1 Z2.325
G1 F600 E78.14380
G1 F780 X84.806 Y103.255 E78.14417
G1 X84.857 Y103.309 E78.14639
G1 X85.216 Y103.892 E78.16678
G1 X85.527 Y104.383 E78.18409
G1 X85.604 Y104.573 E78.19019
G1 X85.612 Y104.733 E78.19497
G1 X85.569 Y104.987 E78.20264
G1 X85.379 Y105.481 E78.21840
G1 X85.255 Y105.868 E78.23050
G1 X85.096 Y106.553 E78.25145
G1 X85.028 Y106.935 E78.26300
G1 X84.914 Y107.330 E78.27525
G1 X84.837 Y107.501 E78.28083
G1 X84.770 Y107.597 E78.28432
G1 X84.715 Y107.648 E78.28656
G1 X84.688 Y107.659 E78.28742
G1 X84.623 Y107.669 E78.28938
G1 X84.588 Y107.664 E78.29044
G1 X84.444 Y107.594 E78.29520
G1 X84.252 Y107.430 E78.30272
G1 X84.056 Y107.182 E78.31214
G1 X83.933 Y106.958 E78.31975
G1 X83.820 Y106.670 E78.32896
G1 X83.743 Y106.367 E78.33828
G1 X83.659 Y105.690 E78.35859
G1 X83.646 Y105.390 E78.36754
G1 X83.559 Y104.923 E78.38169
G1 X83.358 Y104.262 E78.40226
G1 X83.333 Y104.160 E78.40539
G1 X83.326 Y104.090 E78.40749
G1 X83.828 Y103.492 E78.43074
G1 X84.042 Y103.158 E78.44255
G1 X84.794 Y103.251 E78.46512
G0 F10500 X85.365 Y103.159
;TYPE:WALL-OUTER
G1 F660 X85.643 Y103.631 E78.48144
G1 X85.973 Y104.153 E78.49983
G1 X86.099 Y104.462 E78.50977
G1 X86.114 Y104.765 E78.51880
G1 X86.054 Y105.121 E78.52956
G1 X85.851 Y105.647 E78.54635
G1 X85.738 Y106.001 E78.55742
G1 X85.586 Y106.653 E78.57736
G1 X85.518 Y107.041 E78.58909
G1 X85.383 Y107.505 E78.60348
G1 X85.272 Y107.752 E78.61155
G1 X85.155 Y107.919 E78.61762
G1 X85.066 Y108.009 E78.62139
G1 X84.957 Y108.090 E78.62543
G1 X84.827 Y108.142 E78.62960
G1 X84.621 Y108.176 E78.63582
G1 X84.435 Y108.146 E78.64143
G1 X84.172 Y108.018 E78.65014
G1 X83.918 Y107.804 E78.66004
G1 X83.637 Y107.457 E78.67333
G1 X83.481 Y107.172 E78.68301
G1 X83.342 Y106.822 E78.69423
G1 X83.251 Y106.463 E78.70526
G1 X83.160 Y105.723 E78.72746
G1 X83.148 Y105.447 E78.73569
G1 X83.072 Y105.042 E78.74796
G1 X82.879 Y104.405 E78.76779
G1 X82.840 Y104.248 E78.77261
G1 X82.818 Y104.019 E78.77946
G1 X82.840 Y103.917 E78.78257
G1 X82.861 Y103.868 E78.78415
G1 X83.424 Y103.195 E78.81029
G1 X83.701 Y102.764 E78.82555
G1 X83.776 Y102.689 E78.82870
G1 X83.835 Y102.665 E78.83060
G1 X83.998 Y102.649 E78.83548
G1 X84.904 Y102.761 E78.86267
G1 X85.023 Y102.799 E78.86639
G1 X85.126 Y102.865 E78.87003
G1 X85.243 Y102.990 E78.87513
G1 X85.365 Y103.159 E78.88134
G0 F10500 X84.836 Y103.607
;TYPE:SKIN
G1 F1140 X83.690 Y104.753 E78.92961
G0 F10500 X84.095 Y105.055
G1 F1140 X83.814 Y105.336 E78.94145
G0 F10500 X84.352 Y104.798
G1 F1140 X85.108 Y104.042 E78.97329
G0 F10500 X85.376 Y104.481
G1 F1140 X84.668 Y105.189 E79.00311
G0 F10500 X84.895 Y105.670
G1 F1140 X85.257 Y105.307 E79.01838
G0 F10500 X83.526 Y104.210
G1 F1140 X84.364 Y103.372 E79.05367
G1 F600 E77.55367
G1 Z2.425
G0 F10500 X76.631 Y104.184
;TYPE:WALL-INNER
G1 Z2.325
G1 F600 E79.05367
G1 F780 X76.510 Y104.547 E79.06507
G1 X76.372 Y105.119 E79.08260
G1 X76.356 Y105.174 E79.08430
G1 X76.298 Y105.616 E79.09758
G1 X76.298 Y105.640 E79.09829
G1 X76.214 Y106.352 E79.11965
G1 X76.147 Y106.633 E79.12825
G1 X75.983 Y107.034 E79.14115
G1 X75.856 Y107.246 E79.14851
G1 X75.730 Y107.409 E79.15465
G1 X75.639 Y107.509 E79.15868
G1 X75.466 Y107.636 E79.16507
G1 X75.366 Y107.683 E79.16836
G1 X75.327 Y107.686 E79.16952
G1 X75.305 Y107.682 E79.17019
G1 X75.255 Y107.656 E79.17187
G1 X75.202 Y107.615 E79.17386
G1 X75.128 Y107.522 E79.17740
G1 X74.981 Y107.182 E79.18844
G1 X74.933 Y106.961 E79.19517
G1 X74.912 Y106.890 E79.19738
G1 X74.887 Y106.721 E79.20247
G1 X74.866 Y106.655 E79.20453
G1 X74.725 Y105.984 E79.22495
G1 X74.391 Y105.047 E79.25458
G1 X74.342 Y104.824 E79.26138
G1 X74.341 Y104.777 E79.26278
G1 X74.349 Y104.655 E79.26642
G1 X74.494 Y104.331 E79.27699
G1 X74.814 Y103.819 E79.29497
G1 X75.037 Y103.411 E79.30882
G1 X75.132 Y103.298 E79.31322
G1 X75.191 Y103.272 E79.31514
G1 X75.867 Y103.168 E79.33551
G1 X75.913 Y103.161 E79.33689
G1 X76.128 Y103.488 E79.34855
G1 X76.402 Y103.811 E79.36116
G1 X76.648 Y104.041 E79.37119
G1 X76.631 Y104.184 E79.37548
G0 F10500 X76.994 Y104.678
;TYPE:WALL-OUTER
G1 F660 X76.859 Y105.235 E79.39255
G1 X76.798 Y105.649 E79.40502
G1 X76.798 Y105.664 E79.40546
G1 X76.705 Y106.450 E79.42904
G1 X76.625 Y106.785 E79.43929
G1 X76.432 Y107.256 E79.45445
G1 X76.272 Y107.526 E79.46380
G1 X76.108 Y107.738 E79.47179
G1 X75.974 Y107.884 E79.47769
G1 X75.726 Y108.066 E79.48685
G1 X75.552 Y108.151 E79.49262
G1 X75.446 Y108.179 E79.49588
G1 X75.327 Y108.188 E79.49944
G1 X75.215 Y108.177 E79.50279
G1 X75.121 Y108.150 E79.50570
G1 X74.986 Y108.081 E79.51022
G1 X74.848 Y107.973 E79.51544
G1 X74.695 Y107.780 E79.52277
G1 X74.502 Y107.333 E79.53727
G1 X74.398 Y106.834 E79.55245
G1 X74.244 Y106.127 E79.57400
G1 X74.127 Y105.759 E79.58550
G1 X73.918 Y105.206 E79.60311
G1 X73.843 Y104.874 E79.61325
G1 X73.840 Y104.765 E79.61650
G1 X73.853 Y104.567 E79.62241
G1 X73.867 Y104.508 E79.62421
G1 X74.052 Y104.094 E79.63772
G1 X74.382 Y103.566 E79.65626
G1 X74.617 Y103.136 E79.67086
G1 X74.744 Y102.975 E79.67696
G1 X74.859 Y102.871 E79.68158
G1 X75.050 Y102.788 E79.68779
G1 X75.953 Y102.648 E79.71500
G1 X76.107 Y102.664 E79.71961
G1 X76.225 Y102.725 E79.72357
G1 X76.529 Y103.188 E79.74006
G1 X76.761 Y103.462 E79.75076
G1 X76.962 Y103.642 E79.75879
G1 X77.057 Y103.748 E79.76303
G1 X77.134 Y103.867 E79.76725
G1 X77.148 Y103.932 E79.76924
G1 X77.151 Y104.047 E79.77266
G1 X77.125 Y104.267 E79.77926
G1 X77.089 Y104.418 E79.78388
G1 X76.994 Y104.678 E79.79213
G0 F10500 X76.330 Y103.982
;TYPE:FILL
G1 F900 X74.758 Y105.554 E79.85834
G0 F10500 X75.103 Y106.923
G1 F900 X75.538 Y107.358 E79.87666
G0 F10500 X74.851 Y105.814
;TYPE:SKIN
G1 F1140 X75.136 Y105.529 E79.88867
G0 F10500 X74.665 Y105.293
G1 F1140 X76.161 Y103.797 E79.95168
G0 F10500 X75.857 Y103.394
G1 F1140 X74.518 Y104.733 E80.00808
G0 F10500 X75.738 Y104.927
G1 F1140 X76.301 Y104.717 E80.03710
G1 X76.018 Y105.354 E80.05786
G1 F600 E78.55786
G1 Z2.425
G0 F10500 X78.325 Y107.793
;TYPE:SUPPORT
G1 Z2.325
G1 F600 E80.05786
G1 F1140 X78.325 Y110.718 E80.14498
G0 F10500 X78.325 Y110.543
G0 X81.535 Y110.088
G0 X81.658 Y110.211
G1 F1140 X81.658 Y107.829 E80.21593
G1 F600 E78.71593
G1 Z2.425
G0 F10500 X81.658 Y101.030
G1 Z2.325
G1 F600 E80.21593
G1 F1140 X81.658 Y57.857 E81.50176
G0 F10500 X81.591 Y58.017
G0 X78.325 Y57.343
G0 X78.325 Y57.168
G1 F1140 X78.325 Y98.106 E82.72104
G0 F10500 X78.403 Y97.951
G0 X77.799 Y96.971
G0 X76.267 Y95.508
G0 X75.046 Y95.149
G0 X74.992 Y95.313
G1 F1140 X74.992 Y65.836 E83.59896
G0 F10500 X74.925 Y65.996
G0 X76.568 Y66.748
G0 X77.213 Y65.529
G0 X78.174 Y60.925
G0 X83.191 Y66.549
G0 X84.825 Y65.951
G0 X84.991 Y65.896
G1 F1140 X84.991 Y94.974 E84.46500
G1 F600 E82.96500
G1 Z2.425
G0 F10500 X81.658 Y52.624
G1 Z2.325
G1 F600 E84.46500
G1 F1140 X81.658 Y44.352 E84.71137
G0 F10500 X81.616 Y44.521
G0 X78.367 Y44.566
G0 X78.325 Y44.395
G1 F1140 X78.325 Y51.099 E84.91104
;LAYER:6
G1 F600 E83.41104
G1 Z2.425
G0 F10500 X74.855 Y60.061 Z2.705
;TYPE:WALL-INNER
G1 Z2.705
G1 F600 E84.91104
G1 F720 X75.071 Y60.080 E84.91750
G1 X75.152 Y60.105 E84.92002
G1 X75.443 Y60.290 E84.93029
G1 X75.660 Y60.463 E84.93856
G1 X75.759 Y60.581 E84.94314
G1 X76.189 Y60.947 E84.95996
G1 X76.295 Y61.087 E84.96519
G1 X76.396 Y61.343 E84.97339
G1 X76.405 Y61.402 E84.97516
G1 X76.302 Y61.689 E84.98425
G1 X76.182 Y62.193 E84.99968
G1 X76.009 Y62.677 E85.01499
G1 X76.006 Y62.702 E85.01574
G1 X75.878 Y63.123 E85.02884
G1 X75.695 Y63.522 E85.04191
G1 X75.533 Y63.712 E85.04935
G1 X75.413 Y63.805 E85.05387
G1 X75.297 Y63.862 E85.05772
G1 X75.097 Y63.892 E85.06375
G1 X74.669 Y63.811 E85.07672
G1 X74.323 Y63.686 E85.08768
G1 X74.153 Y63.591 E85.09348
G1 X73.865 Y63.288 E85.10593
G1 X73.811 Y63.184 E85.10942
G1 X73.672 Y62.797 E85.12166
G1 X73.671 Y62.758 E85.12283
G1 X73.535 Y62.161 E85.14106
G1 X73.490 Y61.542 E85.15955
G1 X73.493 Y61.266 E85.16777
G1 X73.522 Y61.072 E85.17361
G1 X73.561 Y61.004 E85.17594
G1 X73.801 Y60.775 E85.18582
G1 X74.171 Y60.319 E85.20331
G1 X74.427 Y60.159 E85.21231
G1 X74.702 Y60.026 E85.22140
G1 X74.736 Y60.025 E85.22242
G1 X74.855 Y60.061 E85.22612
G0 F10500 X74.951 Y59.568
;TYPE:WALL-OUTER
G1 F600 X75.171 Y59.587 E85.23270
G1 X75.362 Y59.646 E85.23865
G1 X75.733 Y59.883 E85.25176
G1 X76.015 Y60.107 E85.26249
G1 X76.116 Y60.228 E85.26718
G1 X76.556 Y60.602 E85.28438
G1 X76.734 Y60.837 E85.29316
G1 X76.881 Y61.212 E85.30516
G1 X76.914 Y61.416 E85.31131
G1 X76.877 Y61.588 E85.31655
G1 X76.781 Y61.837 E85.32450
G1 X76.661 Y62.340 E85.33990
G1 X76.501 Y62.780 E85.35385
G1 X76.499 Y62.801 E85.35447
G1 X76.348 Y63.293 E85.36980
G1 X76.208 Y63.632 E85.38073
G1 X76.119 Y63.789 E85.38610
G1 X76.038 Y63.901 E85.39022
G1 X75.871 Y64.083 E85.39757
G1 X75.681 Y64.231 E85.40475
G1 X75.441 Y64.347 E85.41269
G1 X75.139 Y64.392 E85.42178
G1 X75.069 Y64.394 E85.42387
G1 X74.521 Y64.290 E85.44048
G1 X74.116 Y64.144 E85.45330
G1 X73.846 Y63.993 E85.46251
G1 X73.511 Y63.651 E85.47677
G1 X73.436 Y63.549 E85.48054
G1 X73.351 Y63.384 E85.48607
G1 X73.174 Y62.878 E85.50204
G1 X73.173 Y62.838 E85.50323
G1 X73.138 Y62.721 E85.50687
G1 X73.040 Y62.240 E85.52149
G1 X72.999 Y61.859 E85.53290
G1 X72.990 Y61.568 E85.54157
G1 X72.994 Y61.225 E85.55179
G1 X73.040 Y60.908 E85.56133
G1 X73.164 Y60.690 E85.56880
G1 X73.433 Y60.435 E85.57984
G1 X73.836 Y59.939 E85.59887
G1 X74.188 Y59.718 E85.61125
G1 X74.591 Y59.531 E85.62448
G1 X74.759 Y59.524 E85.62949
G1 X74.841 Y59.534 E85.63195
G1 X74.951 Y59.568 E85.63538
G0 F10500 X74.846 Y59.901
G0 X76.097 Y61.788
;TYPE:FILL
G1 F840 X74.372 Y63.513 E85.70804
G0 F10500 X74.536 Y63.576
;TYPE:SKIN
G1 F1080 X73.894 Y62.580 E85.73429
G1 X73.891 Y61.870 E85.74174
G1 X73.808 Y61.080 E85.75924
G1 X74.367 Y61.285 E85.77698
G0 F10500 X74.266 Y60.478
G1 F1080 X75.352 Y61.563 E85.82270
G0 F10500 X75.835 Y62.046
G1 F1080 X75.815 Y62.380 E85.82932
G1 X75.629 Y62.901 E85.83663
G1 X75.473 Y63.452 E85.84417
G1 X74.999 Y63.332 E85.85873
G0 F10500 X76.134 Y61.638
G1 F1080 X74.712 Y60.216 E85.91863
G1 F600 E84.41863
G1 Z2.805
G0 F10500 X83.638 Y61.320
;TYPE:WALL-INNER
G1 Z2.705
G1 F600 E85.91863
G1 F720 X83.724 Y61.103 E85.92558
G1 X83.815 Y60.961 E85.93060
G1 X84.146 Y60.681 E85.94351
G1 X84.452 Y60.364 E85.95664
G1 X84.491 Y60.337 E85.95805
G1 X84.517 Y60.326 E85.95889
G1 X84.877 Y60.098 E85.97158
G1 X85.035 Y60.070 E85.97636
G1 X85.144 Y60.064 E85.97961
G1 X85.298 Y60.032 E85.98430
G1 X85.334 Y60.032 E85.98537
G1 X85.781 Y60.272 E86.00048
G1 X85.912 Y60.394 E86.00581
G1 X86.062 Y60.600 E86.01340
G1 X86.207 Y60.763 E86.01990
G1 X86.474 Y60.986 E86.03026
G1 X86.514 Y61.163 E86.03566
G1 X86.539 Y61.720 E86.05227
G1 X86.522 Y61.961 E86.05947
G1 X86.422 Y62.510 E86.07609
G1 X86.265 Y63.075 E86.09355
G1 X86.131 Y63.335 E86.10226
G1 X85.966 Y63.510 E86.10943
G1 X85.872 Y63.584 E86.11299
G1 X85.754 Y63.634 E86.11681
G1 X85.687 Y63.682 E86.11926
G1 X85.493 Y63.763 E86.12552
G1 X85.093 Y63.882 E86.13795
G1 X84.893 Y63.917 E86.14400
G1 X84.792 Y63.906 E86.14703
G1 X84.630 Y63.860 E86.15204
G1 X84.525 Y63.813 E86.15547
G1 X84.429 Y63.746 E86.15895
G1 X84.336 Y63.656 E86.16281
G1 X84.174 Y63.427 E86.17116
G1 X84.105 Y63.274 E86.17616
G1 X84.013 Y62.944 E86.18636
G1 X83.996 Y62.807 E86.19048
G1 X83.715 Y61.669 E86.22539
G1 X83.625 Y61.388 E86.23418
G1 X83.638 Y61.320 E86.23624
G0 F10500 X83.234 Y61.805
;TYPE:WALL-OUTER
G1 F600 X83.123 Y61.461 E86.24700
G1 X83.123 Y61.344 E86.25049
G1 X83.156 Y61.178 E86.25553
G1 X83.276 Y60.876 E86.26521
G1 X83.460 Y60.607 E86.27491
G1 X83.803 Y60.316 E86.28831
G1 X84.124 Y59.984 E86.30207
G1 X84.248 Y59.896 E86.30659
G1 X84.623 Y59.664 E86.31973
G1 X84.730 Y59.616 E86.32322
G1 X84.977 Y59.572 E86.33069
G1 X85.079 Y59.567 E86.33373
G1 X85.252 Y59.531 E86.33900
G1 X85.428 Y59.534 E86.34424
G1 X85.601 Y59.600 E86.34975
G1 X86.078 Y59.865 E86.36601
G1 X86.288 Y60.061 E86.37456
G1 X86.451 Y60.286 E86.38284
G1 X86.556 Y60.403 E86.38752
G1 X86.864 Y60.661 E86.39949
G1 X86.913 Y60.738 E86.40220
G1 X86.953 Y60.837 E86.40538
G1 X87.009 Y61.083 E86.41290
G1 X87.040 Y61.734 E86.43231
G1 X87.019 Y62.024 E86.44097
G1 X86.913 Y62.607 E86.45862
G1 X86.734 Y63.249 E86.47847
G1 X86.683 Y63.376 E86.48254
G1 X86.533 Y63.637 E86.49151
G1 X86.306 Y63.878 E86.50137
G1 X86.128 Y64.019 E86.50813
G1 X86.001 Y64.073 E86.51224
G1 X85.934 Y64.122 E86.51471
G1 X85.661 Y64.234 E86.52350
